;FLAVOR:Marlin
;TIME:504
;Filament used: 0.29813m
;Layer height: 0.4
;MINX:149.046
;MINY:132.453
;MINZ:0.3
;MAXX:164.142
;MAXY:157.547
;MAXZ:17.1
;TARGET_MACHINE.NAME:Creality CR-10 Smart
;Generated with Cura_SteamEngine 5.10.2
M140 S60
M105
M190 S60
M104 S200
M105
M109 S200
M201 X500.00 Y500.00 Z100.00 E5000.00 ;Setup machine max acceleration
M203 X500.00 Y500.00 Z10.00 E50.00 ;Setup machine max feedrate
M204 P500.00 R1000.00 T500.00 ;Setup Print/Retract/Travel acceleration
M205 X8.00 Y8.00 Z0.40 E5.00 ;Setup Jerk
M220 S100 ;Reset Feedrate
M221 S100 ;Reset Flowrate

G28 ;Home

G92 E0 ;Reset Extruder
G1 Z2.0 F3000 ;Move Z Axis up
G1 X10.1 Y20 Z0.28 F5000.0 ;Move to start position
G1 X10.1 Y200.0 Z0.28 F1500.0 E15 ;Draw the first line
G1 X10.4 Y200.0 Z0.28 F5000.0 ;Move to side a little
G1 X10.4 Y20 Z0.28 F1500.0 E30 ;Draw the second line
G92 E0 ;Reset Extruder
G1 Z2.0 F3000 ;Move Z Axis up

M82 ;absolute extrusion mode
G92 E0
G92 E0
G1 F3000 E-4
;LAYER_COUNT:43
;LAYER:0
M107
G0 F6000 X151.292 Y134.625 Z0.3
;TYPE:SKIRT
G1 F2400 E0
G1 F900 X152.439 Y133.699 E0.08825
G1 X153.748 Y133.006 E0.17693
G1 X155.189 Y132.582 E0.26685
G1 X156.634 Y132.453 E0.35371
G1 X158.126 Y132.609 E0.44352
G1 X159.537 Y133.048 E0.53199
G1 X160.843 Y133.762 E0.6211
G1 X161.969 Y134.698 E0.70876
G1 X162.892 Y135.841 E0.79671
G1 X163.586 Y137.153 E0.88557
G1 X164.013 Y138.601 E0.97595
G1 X164.142 Y140.042 E1.06257
G1 X163.986 Y141.531 E1.1522
G1 X163.547 Y142.942 E1.24067
G1 X162.833 Y144.248 E1.32978
G1 X162.211 Y144.997 E1.38806
G1 X162.891 Y145.84 E1.4529
G1 X163.586 Y147.153 E1.54184
G1 X164.013 Y148.601 E1.63222
G1 X164.142 Y150.042 E1.71884
G1 X163.986 Y151.531 E1.80847
G1 X163.547 Y152.942 E1.89694
G1 X162.833 Y154.248 E1.98605
G1 X161.898 Y155.373 E2.07363
G1 X160.743 Y156.308 E2.16259
G1 X159.448 Y156.988 E2.25016
G1 X157.998 Y157.418 E2.3407
G1 X156.552 Y157.547 E2.42762
G1 X155.063 Y157.391 E2.51725
G1 X153.652 Y156.952 E2.60572
G1 X152.344 Y156.237 E2.69496
G1 X151.22 Y155.303 E2.78245
G1 X150.285 Y154.148 E2.87142
G1 X149.604 Y152.851 E2.95912
G1 X149.175 Y151.406 E3.04936
G1 X149.046 Y149.958 E3.1364
G1 X149.202 Y148.469 E3.22603
G1 X149.641 Y147.058 E3.3145
G1 X150.356 Y145.749 E3.40379
G1 X150.978 Y145.004 E3.46189
G1 X150.285 Y144.148 E3.52783
G1 X149.604 Y142.851 E3.61553
G1 X149.175 Y141.406 E3.70577
G1 X149.046 Y139.958 E3.79281
G1 X149.202 Y138.469 E3.88244
G1 X149.641 Y137.058 E3.97091
G1 X150.356 Y135.75 E4.06015
G1 X151.292 Y134.625 E4.14777
G0 F6000 X151.631 Y134.968
G1 F900 X152.706 Y134.1 E4.23048
G1 X153.929 Y133.453 E4.31332
G1 X155.278 Y133.056 E4.3975
G1 X156.632 Y132.935 E4.47889
G1 X158.028 Y133.081 E4.56292
G1 X159.349 Y133.492 E4.64575
G1 X160.571 Y134.16 E4.72912
G1 X161.626 Y135.037 E4.81126
G1 X162.489 Y136.106 E4.89351
G1 X163.14 Y137.336 E4.97682
G1 X163.539 Y138.69 E5.06133
G1 X163.66 Y140.04 E5.14248
G1 X163.514 Y141.433 E5.22633
G1 X163.103 Y142.754 E5.30916
G1 X162.435 Y143.976 E5.39253
G1 X161.59 Y144.992 E5.47165
G1 X162.489 Y146.106 E5.55735
G1 X163.14 Y147.336 E5.64066
G1 X163.539 Y148.69 E5.72517
G1 X163.66 Y150.04 E5.80632
G1 X163.514 Y151.433 E5.89017
G1 X163.103 Y152.754 E5.973
G1 X162.435 Y153.976 E6.05637
G1 X161.559 Y155.03 E6.13842
G1 X160.478 Y155.905 E6.22169
G1 X159.265 Y156.542 E6.30371
G1 X157.909 Y156.944 E6.38838
G1 X156.554 Y157.065 E6.46983
G1 X155.161 Y156.919 E6.55368
G1 X153.84 Y156.508 E6.63651
G1 X152.616 Y155.839 E6.72002
G1 X151.563 Y154.964 E6.80198
G1 X150.688 Y153.883 E6.88524
G1 X150.051 Y152.67 E6.96727
G1 X149.649 Y151.315 E7.05188
G1 X149.528 Y149.96 E7.13333
G1 X149.674 Y148.567 E7.21718
G1 X150.085 Y147.246 E7.30001
G1 X150.754 Y146.022 E7.38352
G1 X151.599 Y145.008 E7.46254
G1 X150.688 Y143.883 E7.5492
G1 X150.051 Y142.67 E7.63123
G1 X149.649 Y141.315 E7.71585
G1 X149.528 Y139.96 E7.79729
G1 X149.674 Y138.567 E7.88114
G1 X150.085 Y137.246 E7.96397
G1 X150.754 Y136.022 E8.04748
G1 X151.631 Y134.968 E8.12957
G0 F6000 X151.97 Y135.311
G1 F900 X152.973 Y134.501 E8.20675
G1 X154.111 Y133.899 E8.28383
G1 X155.365 Y133.53 E8.36208
G1 X156.63 Y133.417 E8.43812
G1 X157.93 Y133.553 E8.51637
G1 X159.161 Y133.936 E8.59355
G1 X160.299 Y134.558 E8.6712
G1 X161.283 Y135.376 E8.7478
G1 X162.088 Y136.373 E8.82452
G1 X162.693 Y137.517 E8.902
G1 X163.065 Y138.779 E8.98077
G1 X163.178 Y140.038 E9.05644
G1 X163.042 Y141.335 E9.13452
G1 X162.659 Y142.566 E9.2117
G1 X162.037 Y143.704 E9.28934
G1 X161.22 Y144.687 E9.36587
G1 X160.832 Y145.001 E9.39575
G1 X161.283 Y145.376 E9.43086
G1 X162.088 Y146.373 E9.50758
G1 X162.693 Y147.517 E9.58506
G1 X163.065 Y148.779 E9.66382
G1 X163.178 Y150.038 E9.7395
G1 X163.042 Y151.335 E9.81758
G1 X162.659 Y152.566 E9.89476
G1 X162.037 Y153.704 E9.9724
G1 X161.22 Y154.687 E10.04892
G1 X160.213 Y155.502 E10.12648
G1 X159.082 Y156.096 E10.20296
G1 X157.82 Y156.47 E10.28177
G1 X156.556 Y156.583 E10.35774
G1 X155.259 Y156.447 E10.43582
G1 X154.028 Y156.064 E10.513
G1 X152.888 Y155.441 E10.59078
G1 X151.906 Y154.625 E10.66721
G1 X151.091 Y153.618 E10.74477
G1 X150.497 Y152.487 E10.82125
G1 X150.123 Y151.226 E10.9
G1 X150.01 Y149.962 E10.97597
G1 X150.146 Y148.665 E11.05405
G1 X150.529 Y147.434 E11.13123
G1 X151.152 Y146.294 E11.20901
G1 X151.971 Y145.31 E11.28565
G1 X152.356 Y144.999 E11.31528
G1 X151.906 Y144.625 E11.35031
G1 X151.091 Y143.618 E11.42787
G1 X150.497 Y142.487 E11.50435
G1 X150.123 Y141.226 E11.5831
G1 X150.01 Y139.962 E11.65907
G1 X150.146 Y138.665 E11.73715
G1 X150.529 Y137.434 E11.81433
G1 X151.152 Y136.294 E11.89211
G1 X151.97 Y135.311 E11.96867
G0 F6000 X152.309 Y135.654
G1 F900 X153.24 Y134.902 E12.04032
G1 X154.292 Y134.346 E12.11155
G1 X155.454 Y134.004 E12.18407
G1 X156.628 Y133.899 E12.25464
G1 X157.832 Y134.025 E12.32711
G1 X158.973 Y134.38 E12.39865
G1 X160.027 Y134.956 E12.47056
G1 X160.94 Y135.715 E12.54164
G1 X161.687 Y136.64 E12.61282
G1 X162.246 Y137.698 E12.68446
G1 X162.591 Y138.868 E12.75749
G1 X162.696 Y140.036 E12.8277
G1 X162.57 Y141.237 E12.89999
G1 X162.215 Y142.378 E12.97153
G1 X161.639 Y143.432 E13.04344
G1 X160.881 Y144.344 E13.11444
G1 X160.075 Y144.996 E13.1765
G1 X160.94 Y145.715 E13.24384
G1 X161.687 Y146.64 E13.31502
G1 X162.246 Y147.698 E13.38666
G1 X162.591 Y148.868 E13.45969
G1 X162.696 Y150.036 E13.5299
G1 X162.57 Y151.237 E13.60219
G1 X162.215 Y152.378 E13.67373
G1 X161.639 Y153.432 E13.74564
G1 X160.881 Y154.344 E13.81664
G1 X159.948 Y155.099 E13.88849
G1 X158.899 Y155.65 E13.95943
G1 X157.731 Y155.996 E14.03236
G1 X156.558 Y156.101 E14.10287
G1 X155.357 Y155.975 E14.17516
G1 X154.216 Y155.62 E14.2467
G1 X153.16 Y155.043 E14.31875
G1 X152.249 Y154.286 E14.38966
G1 X151.494 Y153.353 E14.46151
G1 X150.943 Y152.304 E14.53245
G1 X150.597 Y151.137 E14.60532
G1 X150.492 Y149.964 E14.67583
G1 X150.618 Y148.763 E14.74813
G1 X150.973 Y147.622 E14.81967
G1 X151.55 Y146.566 E14.89171
G1 X152.309 Y145.654 E14.96274
G1 X153.114 Y145.005 E15.02465
G1 X152.249 Y144.286 E15.09199
G1 X151.494 Y143.353 E15.16384
G1 X150.943 Y142.304 E15.23478
G1 X150.597 Y141.137 E15.30766
G1 X150.492 Y139.964 E15.37816
G1 X150.618 Y138.763 E15.45046
G1 X150.973 Y137.622 E15.522
G1 X151.55 Y136.566 E15.59404
G1 X152.309 Y135.654 E15.66507
G0 F6000 X152.647 Y135.998
G1 F900 X153.508 Y135.303 E15.73132
G1 X154.473 Y134.793 E15.79666
G1 X155.543 Y134.478 E15.86344
G1 X156.626 Y134.381 E15.92854
G1 X157.734 Y134.497 E15.99523
G1 X158.785 Y134.824 E16.06113
G1 X159.755 Y135.354 E16.12731
G1 X160.597 Y136.054 E16.19286
G1 X161.284 Y136.905 E16.25834
G1 X161.801 Y137.882 E16.32451
G1 X162.117 Y138.956 E16.39154
G1 X162.214 Y140.034 E16.45634
G1 X162.098 Y141.139 E16.52285
G1 X161.771 Y142.19 E16.58875
G1 X161.241 Y143.16 E16.65493
G1 X160.542 Y144.001 E16.7204
G1 X159.683 Y144.696 E16.78655
G1 X159.106 Y144.999 E16.82557
G1 X159.755 Y145.354 E16.86985
G1 X160.597 Y146.054 E16.93541
G1 X161.284 Y146.905 E17.00088
G1 X161.801 Y147.882 E17.06706
G1 X162.117 Y148.956 E17.13408
G1 X162.214 Y150.034 E17.19888
G1 X162.098 Y151.139 E17.2654
G1 X161.771 Y152.19 E17.3313
G1 X161.241 Y153.16 E17.39747
G1 X160.542 Y154.001 E17.46294
G1 X159.683 Y154.696 E17.52909
G1 X158.716 Y155.204 E17.59449
G1 X157.642 Y155.522 E17.66155
G1 X156.56 Y155.619 E17.72658
G1 X155.455 Y155.503 E17.7931
G1 X154.404 Y155.176 E17.859
G1 X153.432 Y154.645 E17.92531
G1 X152.592 Y153.947 E17.99069
G1 X151.897 Y153.088 E18.05684
G1 X151.389 Y152.121 E18.12224
G1 X151.071 Y151.048 E18.18924
G1 X150.974 Y149.966 E18.25428
G1 X151.09 Y148.861 E18.32079
G1 X151.417 Y147.81 E18.38669
G1 X151.948 Y146.838 E18.453
G1 X152.647 Y145.998 E18.51842
G1 X153.512 Y145.3 E18.58497
G1 X154.081 Y145 E18.62348
G1 X153.432 Y144.645 E18.66776
G1 X152.592 Y143.947 E18.73315
G1 X151.897 Y143.088 E18.7993
G1 X151.389 Y142.121 E18.8647
G1 X151.071 Y141.048 E18.9317
G1 X150.974 Y139.966 E18.99673
G1 X151.09 Y138.861 E19.06325
G1 X151.417 Y137.81 E19.12915
G1 X151.948 Y136.838 E19.19546
G1 X152.647 Y135.998 E19.26088
G0 F6000 X152.986 Y136.341
G1 F900 X153.775 Y135.704 E19.32159
G1 X154.654 Y135.24 E19.3811
G1 X155.632 Y134.952 E19.44213
G1 X156.624 Y134.863 E19.50176
G1 X157.636 Y134.969 E19.56268
G1 X158.597 Y135.268 E19.62293
G1 X159.483 Y135.752 E19.68338
G1 X160.254 Y136.393 E19.7434
G1 X160.883 Y137.172 E19.80335
G1 X161.354 Y138.063 E19.86368
G1 X161.643 Y139.045 E19.92497
G1 X161.732 Y140.032 E19.9843
G1 X161.626 Y141.041 E20.04504
G1 X161.327 Y142.002 E20.10529
G1 X160.843 Y142.888 E20.16573
G1 X160.203 Y143.658 E20.22567
G1 X159.418 Y144.293 E20.28612
G1 X158.533 Y144.758 E20.34597
G1 X157.726 Y144.997 E20.39636
G1 X158.597 Y145.268 E20.45097
G1 X159.483 Y145.752 E20.51141
G1 X160.254 Y146.393 E20.57144
G1 X160.883 Y147.172 E20.63138
G1 X161.354 Y148.063 E20.69172
G1 X161.643 Y149.045 E20.753
G1 X161.732 Y150.032 E20.81233
G1 X161.626 Y151.041 E20.87307
G1 X161.327 Y152.002 E20.93333
G1 X160.843 Y152.888 E20.99377
G1 X160.203 Y153.658 E21.05371
G1 X159.418 Y154.293 E21.11416
G1 X158.533 Y154.758 E21.17401
G1 X157.553 Y155.048 E21.2352
G1 X156.562 Y155.137 E21.29477
G1 X155.553 Y155.031 E21.35551
G1 X154.592 Y154.732 E21.41576
G1 X153.704 Y154.247 E21.47633
G1 X152.935 Y153.608 E21.53619
G1 X152.3 Y152.823 E21.59664
G1 X151.835 Y151.938 E21.65649
G1 X151.545 Y150.959 E21.71762
G1 X151.456 Y149.968 E21.77719
G1 X151.562 Y148.959 E21.83793
G1 X151.861 Y147.998 E21.89818
G1 X152.346 Y147.11 E21.95876
G1 X152.986 Y146.341 E22.01866
G1 X153.775 Y145.704 E22.07936
G1 X154.654 Y145.241 E22.13884
G1 X155.461 Y145.002 E22.18923
G1 X154.592 Y144.732 E22.24371
G1 X153.704 Y144.247 E22.30428
G1 X152.935 Y143.608 E22.36414
G1 X152.3 Y142.823 E22.42459
G1 X151.835 Y141.938 E22.48444
G1 X151.545 Y140.959 E22.54557
G1 X151.456 Y139.968 E22.60514
G1 X151.562 Y138.959 E22.66588
G1 X151.861 Y137.998 E22.72613
G1 X152.346 Y137.11 E22.78671
G1 X152.986 Y136.341 E22.84661
G0 F6000 X153.324 Y136.685
G1 F900 X154.039 Y136.108 E22.90161
G1 X154.839 Y135.686 E22.95576
G1 X155.721 Y135.426 E23.01081
G1 X156.622 Y135.345 E23.06497
G1 X157.538 Y135.441 E23.12011
G1 X158.409 Y135.712 E23.17472
G1 X159.211 Y136.15 E23.22943
G1 X159.911 Y136.732 E23.28393
G1 X160.482 Y137.439 E23.33834
G1 X160.908 Y138.245 E23.39292
G1 X161.169 Y139.132 E23.44827
G1 X161.25 Y140.03 E23.50225
G1 X161.154 Y140.943 E23.55721
G1 X160.883 Y141.814 E23.61182
G1 X160.445 Y142.616 E23.66653
G1 X159.864 Y143.315 E23.72095
G1 X159.153 Y143.89 E23.77569
G1 X158.35 Y144.312 E23.83
G1 X157.464 Y144.574 E23.88531
G1 X156.564 Y144.655 E23.93941
G1 X155.651 Y144.559 E23.99437
G1 X154.78 Y144.288 E24.04898
G1 X153.976 Y143.849 E24.10383
G1 X153.278 Y143.269 E24.15816
G1 X152.703 Y142.558 E24.2129
G1 X152.281 Y141.755 E24.26721
G1 X152.019 Y140.87 E24.32247
G1 X151.938 Y139.97 E24.37657
G1 X152.034 Y139.057 E24.43153
G1 X152.305 Y138.186 E24.48614
G1 X152.744 Y137.382 E24.54098
G1 X153.324 Y136.685 E24.59527
G1 F3000 E20.59527
G0 F6000 X152.955 Y140
G0 X153.025 Y140.709
G0 X153.233 Y141.391
G0 X155.721 Y145.426
G1 F2400 E24.59527
G1 F900 X156.622 Y145.345 E24.64943
G1 X157.538 Y145.441 E24.70456
G1 X158.409 Y145.712 E24.75918
G1 X159.211 Y146.15 E24.81388
G1 X159.911 Y146.732 E24.86838
G1 X160.482 Y147.439 E24.92279
G1 X160.908 Y148.245 E24.97737
G1 X161.169 Y149.132 E25.03273
G1 X161.25 Y150.03 E25.08671
G1 X161.154 Y150.943 E25.14167
G1 X160.883 Y151.814 E25.19628
G1 X160.445 Y152.616 E25.25099
G1 X159.864 Y153.315 E25.3054
G1 X159.153 Y153.89 E25.36015
G1 X158.35 Y154.312 E25.41445
G1 X157.464 Y154.574 E25.46977
G1 X156.564 Y154.655 E25.52387
G1 X155.651 Y154.559 E25.57883
G1 X154.78 Y154.288 E25.63344
G1 X153.976 Y153.849 E25.68828
G1 X153.278 Y153.269 E25.74261
G1 X152.703 Y152.558 E25.79736
G1 X152.281 Y151.755 E25.85167
G1 X152.019 Y150.87 E25.90692
G1 X151.938 Y149.97 E25.96102
G1 X152.034 Y149.057 E26.01598
G1 X152.305 Y148.186 E26.07059
G1 X152.744 Y147.382 E26.12544
G1 X153.324 Y146.685 E26.17972
G1 X154.039 Y146.108 E26.23473
G1 X154.839 Y145.686 E26.28888
G1 X155.721 Y145.426 E26.34393
G0 F6000 X155.813 Y145.9
G1 F900 X156.62 Y145.827 E26.39244
G1 X157.44 Y145.913 E26.4418
G1 X158.221 Y146.156 E26.49077
G1 X158.939 Y146.548 E26.53974
G1 X159.568 Y147.071 E26.58872
G1 X160.081 Y147.706 E26.63759
G1 X160.462 Y148.427 E26.68641
G1 X160.695 Y149.219 E26.73583
G1 X160.768 Y150.028 E26.78446
G1 X160.682 Y150.845 E26.83365
G1 X160.439 Y151.626 E26.88262
G1 X160.047 Y152.344 E26.93159
G1 X159.525 Y152.972 E26.98048
G1 X158.888 Y153.487 E27.02952
G1 X158.167 Y153.866 E27.07829
G1 X157.375 Y154.1 E27.12773
G1 X156.566 Y154.173 E27.17636
G1 X155.749 Y154.087 E27.22554
G1 X154.968 Y153.844 E27.27451
G1 X154.248 Y153.451 E27.32362
G1 X153.621 Y152.93 E27.37242
G1 X153.106 Y152.293 E27.42146
G1 X152.727 Y151.572 E27.47023
G1 X152.493 Y150.781 E27.51961
G1 X152.42 Y149.972 E27.56824
G1 X152.506 Y149.155 E27.61742
G1 X152.749 Y148.374 E27.66639
G1 X153.142 Y147.654 E27.7155
G1 X153.665 Y147.026 E27.76443
G1 X154.303 Y146.511 E27.81352
G1 X155.017 Y146.134 E27.86185
G1 X155.813 Y145.9 E27.91153
G0 F6000 X155.991 Y146.848
G1 F900 X156.617 Y146.791 E27.94916
G1 X157.244 Y146.857 E27.9869
G1 X157.844 Y147.044 E28.02453
G1 X158.397 Y147.345 E28.06222
G1 X158.881 Y147.748 E28.09993
G1 X159.276 Y148.237 E28.13756
G1 X159.569 Y148.793 E28.17519
G1 X159.747 Y149.397 E28.21289
G1 X159.804 Y150.024 E28.25058
G1 X159.738 Y150.649 E28.2882
G1 X159.551 Y151.249 E28.32583
G1 X159.25 Y151.802 E28.36352
G1 X158.847 Y152.286 E28.40123
G1 X158.358 Y152.681 E28.43886
G1 X157.801 Y152.974 E28.47654
G1 X157.197 Y153.152 E28.51424
G1 X156.57 Y153.209 E28.55193
G1 X155.945 Y153.143 E28.58956
G1 X155.344 Y152.956 E28.62724
G1 X154.792 Y152.655 E28.66488
G1 X154.307 Y152.252 E28.70263
G1 X153.912 Y151.763 E28.74027
G1 X153.619 Y151.206 E28.77794
G1 X153.441 Y150.603 E28.81559
G1 X153.384 Y149.976 E28.85328
G1 X153.45 Y149.351 E28.8909
G1 X153.637 Y148.75 E28.92859
G1 X153.938 Y148.198 E28.96623
G1 X154.341 Y147.714 E29.00393
G1 X154.831 Y147.319 E29.04161
G1 X155.387 Y147.026 E29.07924
G1 X155.991 Y146.848 E29.11694
G0 F6000 X155.902 Y146.374
G1 F900 X156.618 Y146.309 E29.15998
G1 X157.342 Y146.385 E29.20356
G1 X158.033 Y146.6 E29.24689
G1 X158.667 Y146.946 E29.29013
G1 X159.224 Y147.409 E29.33349
G1 X159.68 Y147.974 E29.37696
G1 X160.015 Y148.608 E29.41989
G1 X160.221 Y149.308 E29.46357
G1 X160.286 Y150.026 E29.50673
G1 X160.21 Y150.747 E29.55014
G1 X159.995 Y151.438 E29.59346
G1 X159.649 Y152.072 E29.6367
G1 X159.186 Y152.629 E29.68007
G1 X158.623 Y153.084 E29.7234
G1 X157.984 Y153.42 E29.76663
G1 X157.286 Y153.626 E29.8102
G1 X156.568 Y153.691 E29.85336
G1 X155.847 Y153.615 E29.89676
G1 X155.156 Y153.4 E29.94009
G1 X154.52 Y153.053 E29.98346
G1 X153.964 Y152.591 E30.02674
G1 X153.509 Y152.028 E30.07008
G1 X153.173 Y151.389 E30.1133
G1 X152.967 Y150.692 E30.15681
G1 X152.902 Y149.974 E30.19997
G1 X152.978 Y149.253 E30.24338
G1 X153.193 Y148.562 E30.2867
G1 X153.54 Y147.926 E30.33008
G1 X154.003 Y147.37 E30.37339
G1 X154.567 Y146.915 E30.41678
G1 X155.202 Y146.58 E30.45976
G1 X155.902 Y146.374 E30.50344
G1 F3000 E26.50344
G0 F6000 X155.749 Y144.087
G1 F2400 E30.50344
