; generated by Slic3r 1.3.0 on 2025-08-13 at 21:09:38

; external perimeters extrusion width = 0.55mm (7.28mm^3/s)
; perimeters extrusion width = 0.70mm (11.44mm^3/s)
; infill extrusion width = 0.63mm (13.45mm^3/s)
; solid infill extrusion width = 0.70mm (3.81mm^3/s)
; top infill extrusion width = 0.70mm (2.86mm^3/s)

M107
M104 S200 ; set temperature
G28 ; home all axes
G1 Z5 F5000 ; lift nozzle

; Filament gcode

M109 S200 ; set temperature and wait for it to be reached
G21 ; set units to millimeters
G90 ; use absolute coordinates
M82 ; use absolute distances for extrusion
G92 E0
G1 Z0.350 F7800.000
G1 E-2.00000 F2400.00000
G92 E0
G1 X118.852 Y95.481 F7800.000
G1 E2.00000 F2400.00000
G1 F1800
G1 X120.270 Y93.694 E2.06340
G1 X122.215 Y92.500 E2.12679
G1 X124.622 Y92.043 E2.19484
G1 X156.226 Y92.043 E3.07273
G1 X158.474 Y92.440 E3.13613
G1 X160.449 Y93.582 E3.19953
G1 X162.278 Y96.070 E3.28529
G1 X162.432 Y96.437 E3.29634
G1 X162.825 Y97.743 E3.33423
G1 X163.075 Y99.055 E3.37132
G1 X162.984 Y101.917 E3.45087
G1 X162.734 Y102.888 E3.47872
G1 X161.789 Y104.966 E3.54212
G1 X160.968 Y105.943 E3.57759
G1 X160.814 Y106.093 E3.58355
G1 X158.930 Y107.381 E3.64695
G1 X156.226 Y107.964 E3.72379
G1 X124.622 Y107.964 E4.60168
G1 X122.375 Y107.567 E4.66507
G1 X120.399 Y106.425 E4.72847
G1 X118.935 Y104.674 E4.79187
G1 X118.131 Y102.360 E4.85992
G1 X118.041 Y101.537 E4.88290
G1 X117.981 Y100.329 E4.91650
G1 X117.981 Y99.678 E4.93460
G1 X118.041 Y98.470 E4.96820
G1 X118.131 Y97.647 E4.99118
G1 X118.828 Y95.553 E5.05250
G1 E3.05250 F2400.00000
G92 E0
G1 X152.205 Y100.049 F7800.000
G1 E2.00000 F2400.00000
G1 F1800
G1 X125.892 Y100.049 E2.73094
G1 X125.889 Y100.003 E2.73222
G1 X125.892 Y99.958 E2.73349
G1 X155.190 Y99.958 E3.54732
G1 X155.207 Y100.049 E3.54992
G1 X152.280 Y100.049 E3.63122
G1 E1.63122 F2400.00000
G92 E0
G1 X155.654 Y99.397 F7800.000
G1 E2.00000 F2400.00000
G1 F1800
G1 X155.817 Y100.256 E2.02431
G1 X155.726 Y100.610 E2.03447
G1 X125.358 Y100.610 E2.87804
G1 X125.328 Y100.003 E2.89492
G1 X125.358 Y99.397 E2.91180
G1 X155.579 Y99.397 E3.75127
G1 X156.115 Y99.050 F7800.000
G1 F1800
G1 X156.348 Y100.273 E3.78054
G1 X156.133 Y101.110 E3.80087
G1 X156.114 Y101.128 E3.80148
G1 X124.865 Y101.128 E4.53627
G1 X124.809 Y100.003 E4.56275
G1 X124.865 Y98.879 E4.58924
G1 X156.043 Y98.879 E5.32236
G1 X156.086 Y98.981 E5.32497
G1 X155.920 Y99.511 F7800.000
G1 Z0.650 F7800.000
G1 X155.261 Y99.038 F7800.000
G1 F3600
G1 X155.871 Y100.495 E5.36758
G1 X155.915 Y100.721 E5.37380
G1 X155.662 Y100.969 E5.38334
G1 X125.891 Y100.969 E6.18646
G1 X125.843 Y100.003 E6.21253
G1 X125.891 Y99.038 E6.23860
G1 X155.186 Y99.038 E7.02887
G1 X155.683 Y98.403 F7800.000
G1 F3600
G1 X156.483 Y100.310 E7.08468
G1 X156.582 Y100.827 E7.09886
G1 X156.537 Y101.002 E7.10374
G1 X155.921 Y101.604 E7.12697
G1 X125.341 Y101.604 E7.95192
G1 X125.259 Y101.063 E7.96668
G1 X125.206 Y100.003 E7.99530
G1 X125.259 Y98.944 E8.02392
G1 X125.341 Y98.403 E8.03869
G1 X155.608 Y98.403 E8.85520
G1 X156.056 Y97.842 F7800.000

G1 F3600
G1 X156.271 Y98.354 E8.87060

G1 F3000
G1 X156.722 Y99.429 E8.89464

G1 F3600
G1 X157.023 Y100.148 E8.91629
G1 X157.156 Y100.845 E8.93601
G1 X157.041 Y101.293 E8.94886
G1 X156.142 Y102.165 E8.98364
G1 X124.859 Y102.165 E9.85262
G1 X124.781 Y101.653 E9.86699

G1 F3000
G1 X124.700 Y101.119 E9.87812
G1 X124.645 Y100.003 E9.90114
G1 X124.700 Y98.888 E9.92417
G1 X124.781 Y98.354 E9.93530

G1 F3600
G1 X124.859 Y97.842 E9.94967
G1 X155.981 Y97.842 E10.81418

G1 E8.81418 F2400.00000
G92 E0
G1 X155.085 Y99.921 F7800.000
G1 E2.00000 F2400.00000
G1 F1200
G1 X154.591 Y99.427 E2.01903
G1 X153.684 Y99.427 E2.04368
G1 X154.838 Y100.580 E2.08804
G1 X153.931 Y100.580 E2.11269
G1 X152.778 Y99.427 E2.15706
G1 X151.872 Y99.427 E2.18171
G1 X153.025 Y100.580 E2.22607
G1 X152.119 Y100.580 E2.25072
G1 X150.965 Y99.427 E2.29509
G1 X150.059 Y99.427 E2.31974
G1 X151.213 Y100.580 E2.36410
G1 X150.306 Y100.580 E2.38875
G1 X149.153 Y99.427 E2.43312
G1 X148.247 Y99.427 E2.45777
G1 X149.400 Y100.580 E2.50213
G1 X148.494 Y100.580 E2.52678
G1 X147.340 Y99.427 E2.57115
G1 X146.434 Y99.427 E2.59580
G1 X147.587 Y100.580 E2.64016
G1 X146.681 Y100.580 E2.66481
G1 X145.528 Y99.427 E2.70918
G1 X144.621 Y99.427 E2.73383
G1 X145.775 Y100.580 E2.77819
G1 X144.869 Y100.580 E2.80284
G1 X143.715 Y99.427 E2.84721
G1 X142.809 Y99.427 E2.87186
G1 X143.962 Y100.580 E2.91622
G1 X143.056 Y100.580 E2.94087
G1 X141.903 Y99.427 E2.98524
G1 X140.996 Y99.427 E3.00989
G1 X142.150 Y100.580 E3.05425
G1 X141.243 Y100.580 E3.07890
G1 X140.090 Y99.427 E3.12327
G1 X139.184 Y99.427 E3.14792
G1 X140.337 Y100.580 E3.19228
G1 X139.431 Y100.580 E3.21693
G1 X138.277 Y99.427 E3.26130
G1 X137.371 Y99.427 E3.28595
G1 X138.525 Y100.580 E3.33032
G1 X137.618 Y100.580 E3.35496
G1 X136.465 Y99.427 E3.39933
G1 X135.559 Y99.427 E3.42398
G1 X136.712 Y100.580 E3.46835
G1 X135.806 Y100.580 E3.49300
G1 X134.652 Y99.427 E3.53736
G1 X133.746 Y99.427 E3.56201
G1 X134.899 Y100.580 E3.60638
G1 X133.993 Y100.580 E3.63103
G1 X132.840 Y99.427 E3.67539
G1 X131.933 Y99.427 E3.70004
G1 X133.087 Y100.580 E3.74441
G1 X132.181 Y100.580 E3.76906
G1 X131.027 Y99.427 E3.81342
G1 X130.121 Y99.427 E3.83807
G1 X131.274 Y100.580 E3.88244
G1 X130.368 Y100.580 E3.90709
G1 X129.215 Y99.427 E3.95145
G1 X128.308 Y99.427 E3.97610
G1 X129.462 Y100.580 E4.02047
G1 X128.555 Y100.580 E4.04512
G1 X127.402 Y99.427 E4.08948
G1 X126.496 Y99.427 E4.11413
G1 X127.649 Y100.580 E4.15850
G1 X126.743 Y100.580 E4.18315
G1 X126.248 Y100.086 E4.20217
G1 Z0.950 F7800.000
G1 E2.20217 F2400.00000
G92 E0
G1 X155.419 Y98.477 F7800.000
G1 E2.00000 F2400.00000
G1 F3600
G1 X156.507 Y101.034 E2.07496
G1 X155.775 Y101.530 E2.09882
G1 X125.824 Y101.530 E2.90677
G1 X125.738 Y100.943 E2.92278
G1 X125.691 Y100.003 E2.94815
G1 X125.738 Y99.064 E2.97352
G1 X125.824 Y98.477 E2.98953
G1 X155.344 Y98.477 E3.78587
G1 X155.839 Y97.841 F7800.000
G1 F3600
G1 X157.291 Y101.253 E3.88589
G1 X157.233 Y101.310 E3.88807
G1 X155.970 Y102.165 E3.92924
G1 X125.281 Y102.165 E4.75710
G1 X125.105 Y101.005 E4.78877
G1 X125.055 Y100.003 E4.81582
G1 X125.105 Y99.002 E4.84287
G1 X125.281 Y97.841 E4.87454
G1 X155.764 Y97.841 E5.69686
G1 X156.105 Y97.281 F7800.000

G1 F3600
G1 X156.139 Y97.317 E5.69823

G1 F3000
G1 X156.301 Y97.494 E5.70317
G1 X157.661 Y100.690 E5.77477

G1 F3600
G1 X157.862 Y101.162 E5.78900
G1 X157.902 Y101.373 E5.79498
G1 X157.879 Y101.462 E5.79753
G1 X157.589 Y101.745 E5.80878
G1 X156.743 Y102.319 E5.83717

G1 F3000
G1 X156.195 Y102.690 E5.85081

G1 F3600
G1 X156.142 Y102.726 E5.85261
G1 X124.839 Y102.726 E6.72213
G1 X124.830 Y102.690 E6.72316

G1 F3000
G1 X124.715 Y102.207 E6.73338
G1 X124.546 Y101.060 E6.75729
G1 X124.493 Y100.003 E6.77909
G1 X124.546 Y98.947 E6.80089
G1 X124.715 Y97.799 E6.82480
G1 X124.830 Y97.317 E6.83502

G1 F3600
G1 X124.839 Y97.281 E6.83606
G1 X156.030 Y97.281 E7.70248

G1 E5.70248 F2400.00000
G92 E0
G1 X155.470 Y101.049 F7800.000
G1 E2.00000 F2400.00000
G1 F1200
G1 X155.964 Y100.554 E2.01917
G1 X155.692 Y99.914 E2.03823
G1 X154.464 Y101.141 E2.08579
G1 X153.551 Y101.141 E2.11079
G1 X155.419 Y99.273 E2.18315
G1 X155.246 Y98.865 E2.19529
G1 X154.915 Y98.865 E2.20437
G1 X152.639 Y101.141 E2.29253
G1 X151.726 Y101.141 E2.31753
G1 X154.002 Y98.865 E2.40569
G1 X153.089 Y98.865 E2.43069
G1 X150.813 Y101.141 E2.51885
G1 X149.901 Y101.141 E2.54385
G1 X152.176 Y98.865 E2.63202
G1 X151.264 Y98.865 E2.65702
G1 X148.988 Y101.141 E2.74518
G1 X148.075 Y101.141 E2.77018
G1 X150.351 Y98.865 E2.85834
G1 X149.438 Y98.865 E2.88334
G1 X147.162 Y101.141 E2.97150
G1 X146.250 Y101.141 E2.99650
G1 X148.526 Y98.865 E3.08467
G1 X147.613 Y98.865 E3.10967
G1 X145.337 Y101.141 E3.19783
G1 X144.424 Y101.141 E3.22283
G1 X146.700 Y98.865 E3.31099
G1 X145.787 Y98.865 E3.33599
G1 X143.512 Y101.141 E3.42415
G1 X142.599 Y101.141 E3.44915
G1 X144.875 Y98.865 E3.53732
G1 X143.962 Y98.865 E3.56232
G1 X141.686 Y101.141 E3.65048
G1 X140.773 Y101.141 E3.67548
G1 X143.049 Y98.865 E3.76364
G1 X142.137 Y98.865 E3.78864
G1 X139.861 Y101.141 E3.87680
G1 X138.948 Y101.141 E3.90180
G1 X141.224 Y98.865 E3.98997
G1 X140.311 Y98.865 E4.01497
G1 X138.035 Y101.141 E4.10313
G1 X137.123 Y101.141 E4.12813
G1 X139.398 Y98.865 E4.21629
G1 X138.486 Y98.865 E4.24129
G1 X136.210 Y101.141 E4.32945
G1 X135.297 Y101.141 E4.35445
G1 X137.573 Y98.865 E4.44262
G1 X136.660 Y98.865 E4.46762
G1 X134.384 Y101.141 E4.55578
G1 X133.472 Y101.141 E4.58078
G1 X135.748 Y98.865 E4.66894
G1 X134.835 Y98.865 E4.69394
G1 X132.559 Y101.141 E4.78210
G1 X131.646 Y101.141 E4.80710
G1 X133.922 Y98.865 E4.89527
G1 X133.010 Y98.865 E4.92027
G1 X130.734 Y101.141 E5.00843
G1 X129.821 Y101.141 E5.03343
G1 X132.097 Y98.865 E5.12159
G1 X131.184 Y98.865 E5.14659
G1 X128.908 Y101.141 E5.23475
G1 X127.995 Y101.141 E5.25975
G1 X130.271 Y98.865 E5.34792
G1 X129.359 Y98.865 E5.37292
G1 X127.083 Y101.141 E5.46108
G1 X126.170 Y101.141 E5.48608
G1 X128.446 Y98.865 E5.57424
G1 X127.533 Y98.865 E5.59924
G1 X126.084 Y100.315 E5.65540
G1 X126.126 Y99.360 E5.68158
G1 X126.621 Y98.865 E5.70074
M106 S229.5
G1 Z1.250 F7800.000
G1 E3.70074 F2400.00000
G92 E0
G1 X155.586 Y97.947 F7800.000
G1 E2.00000 F2400.00000
G1 F3600
G1 X156.983 Y101.213 E2.09585
G1 X155.765 Y102.060 E2.13586
G1 X125.777 Y102.060 E2.94483
G1 X125.726 Y101.853 E2.95060
G1 X125.583 Y100.883 E2.97704
G1 X125.540 Y100.003 E3.00080
G1 X125.583 Y99.124 E3.02455
G1 X125.726 Y98.154 E3.05099
G1 X125.777 Y97.947 E3.05676
G1 X155.511 Y97.947 E3.85887
G1 X156.109 Y97.553 F7800.000
G1 F3600
G1 X157.771 Y101.440 E3.97291
G1 X155.964 Y102.696 E4.03227
G1 X125.278 Y102.696 E4.86008
G1 X125.102 Y101.975 E4.88011
G1 X124.950 Y100.945 E4.90818
G1 X124.903 Y100.003 E4.93362
G1 X124.950 Y99.062 E4.95906
G1 X125.102 Y98.032 E4.98713
G1 X125.278 Y97.311 E5.00715
G1 X155.887 Y97.311 E5.83288
G1 X156.058 Y97.497 E5.83970
G1 E3.83970 F2400.00000
G92 E0
G1 X158.368 Y101.670 F7800.000
G1 E2.00000 F2400.00000
G1 F3000
G1 X158.150 Y101.859 E2.00593
G1 X156.148 Y103.251 E2.05620
M106 S255

G1 F3600
G1 X124.837 Y103.251 E2.92595
M106 S229.5

G1 F3000
G1 X124.551 Y102.083 E2.95075
G1 X124.391 Y101.000 E2.97329
G1 X124.342 Y100.003 E2.99386
G1 X124.391 Y99.007 E3.01443
G1 X124.551 Y97.924 E3.03698
G1 X124.837 Y96.756 E3.06177
M106 S255

G1 F3600
G1 X156.139 Y96.756 E3.93127
M106 S229.5

G1 F3000
G1 X156.586 Y97.244 E3.94493
G1 X158.409 Y101.507 E4.04049
M106 S255

G1 F3600
G1 X158.449 Y101.600 E4.04327
G1 X158.424 Y101.621 E4.04418
M106 S229.5

G1 E2.04418 F2400.00000
G92 E0
G1 X155.414 Y98.830 F7800.000
G1 E2.00000 F2400.00000
G1 F1200
G1 X154.919 Y98.335 E2.01902
G1 X154.013 Y98.335 E2.04364
G1 X156.090 Y100.412 E2.12349
G1 X156.442 Y101.234 E2.14780
G1 X156.185 Y101.413 E2.15630
G1 X153.107 Y98.335 E2.27462
G1 X152.202 Y98.335 E2.29925
G1 X155.538 Y101.672 E2.42753
G1 X154.633 Y101.672 E2.45215
G1 X151.296 Y98.335 E2.58043
G1 X150.390 Y98.335 E2.60505
G1 X153.727 Y101.672 E2.73333
G1 X152.821 Y101.672 E2.75795
G1 X149.484 Y98.335 E2.88623
G1 X148.578 Y98.335 E2.91085
G1 X151.915 Y101.672 E3.03913
G1 X151.009 Y101.672 E3.06376
G1 X147.673 Y98.335 E3.19203
G1 X146.767 Y98.335 E3.21666
G1 X150.104 Y101.672 E3.34494
G1 X149.198 Y101.672 E3.36956
G1 X145.861 Y98.335 E3.49784
G1 X144.955 Y98.335 E3.52246
G1 X148.292 Y101.672 E3.65074
G1 X147.386 Y101.672 E3.67536
G1 X144.049 Y98.335 E3.80364
G1 X143.144 Y98.335 E3.82826
G1 X146.480 Y101.672 E3.95654
G1 X145.575 Y101.672 E3.98117
G1 X142.238 Y98.335 E4.10945
G1 X141.332 Y98.335 E4.13407
G1 X144.669 Y101.672 E4.26235
G1 X143.763 Y101.672 E4.28697
G1 X140.426 Y98.335 E4.41525
G1 X139.520 Y98.335 E4.43987
G1 X142.857 Y101.672 E4.56815
G1 X141.951 Y101.672 E4.59277
G1 X138.615 Y98.335 E4.72105
G1 X137.709 Y98.335 E4.74568
G1 X141.046 Y101.672 E4.87395
G1 X140.140 Y101.672 E4.89858
G1 X136.803 Y98.335 E5.02686
G1 X135.897 Y98.335 E5.05148
G1 X139.234 Y101.672 E5.17976
G1 X138.328 Y101.672 E5.20438
G1 X134.991 Y98.335 E5.33266
G1 X134.086 Y98.335 E5.35728
G1 X137.423 Y101.672 E5.48556
G1 X136.517 Y101.672 E5.51018
G1 X133.180 Y98.335 E5.63846
G1 X132.274 Y98.335 E5.66309
G1 X135.611 Y101.672 E5.79137
G1 X134.705 Y101.672 E5.81599
G1 X131.368 Y98.335 E5.94427
G1 X130.462 Y98.335 E5.96889
G1 X133.799 Y101.672 E6.09717
G1 X132.894 Y101.672 E6.12179
G1 X129.557 Y98.335 E6.25007
G1 X128.651 Y98.335 E6.27469
G1 X131.988 Y101.672 E6.40297
G1 X131.082 Y101.672 E6.42759
G1 X127.745 Y98.335 E6.55587
G1 X126.839 Y98.335 E6.58050
G1 X130.176 Y101.672 E6.70878
G1 X129.270 Y101.672 E6.73340
G1 X126.042 Y98.444 E6.85749
G1 X125.969 Y98.939 E6.87109
G1 X125.953 Y99.261 E6.87985
G1 X128.365 Y101.672 E6.97254
G1 X127.459 Y101.672 E6.99717
G1 X125.949 Y100.162 E7.05521
G1 X125.969 Y100.574 E7.06641
G1 X126.058 Y101.177 E7.08299
G1 X126.553 Y101.672 E7.10200
M106 S234.6
G1 Z1.550 F7800.000
G1 E5.10200 F2400.00000
G92 E0
G1 X157.364 Y101.186 F7800.000
G1 E2.00000 F2400.00000
G1 F3600
G1 X156.566 Y101.869 E2.02832
G1 X155.765 Y102.426 E2.05464
G1 X125.729 Y102.426 E2.86491
G1 X125.563 Y101.732 E2.88415
G1 X125.308 Y100.003 E2.93129
G1 X125.563 Y98.275 E2.97843
G1 X125.729 Y97.581 E2.99767
G1 X155.787 Y97.581 E3.80854
G1 X155.852 Y97.653 E3.81115
G1 X157.334 Y101.117 E3.91280
G1 E1.91280 F2400.00000
G92 E0
G1 X124.714 Y100.332 F7800.000
G1 E2.00000 F2400.00000
G1 F3600
G1 X123.833 Y100.332 E2.02378
M106 S255

G1 F3600
G1 X72.235 Y100.332 E3.45704
G1 X42.159 Y100.216 E4.29248
G1 X42.159 Y99.675 E4.30751
G1 X123.833 Y99.675 E6.57621
M106 S234.6

G1 F3600
G1 X124.714 Y99.675 E6.59999
G1 X124.938 Y98.154 E6.64146
G1 X125.231 Y96.945 E6.67501
G1 X156.007 Y96.945 E7.50526
G1 X156.129 Y97.014 E7.50902
G1 X156.394 Y97.303 E7.51960
G1 X158.092 Y101.274 E7.63611
G1 X158.214 Y101.274 E7.63939
G1 X157.538 Y101.885 E7.66398
G1 X156.952 Y102.375 E7.68459
G1 X155.964 Y103.061 E7.71704
G1 X125.231 Y103.061 E8.54611
G1 X124.938 Y101.853 E8.57967
G1 X124.725 Y100.406 E8.61912
G1 X124.230 Y100.892 F7800.000
G1 F3000
G1 X123.860 Y100.892 E8.62673
M106 S255

G1 F3600
G1 X72.234 Y100.892 E10.06079
G1 X33.629 Y100.744 E11.13317
G1 X33.629 Y100.685 E11.13481
G1 X41.599 Y100.679 E11.35620
G1 X41.599 Y99.115 E11.39965
G1 X123.860 Y99.115 E13.68469
M106 S234.6

G1 F3000
G1 X124.230 Y99.115 E13.69231
G1 X124.387 Y98.048 E13.71453
G1 X124.676 Y96.839 E13.74014
G1 X124.823 Y96.385 E13.74998
G1 X156.154 Y96.385 E14.39574
G1 X156.482 Y96.569 E14.40348
G1 X156.872 Y96.994 E14.41538
G1 X158.462 Y100.712 E14.49871
G1 X158.640 Y100.711 E14.50239
M106 S255

G1 F3600
G1 X166.368 Y100.680 E14.71706
G1 X166.369 Y101.078 E14.72812
M106 S234.6

G1 F3000
G1 X166.370 Y101.751 E14.74199
G1 X158.539 Y101.735 E14.90338
G1 X157.906 Y102.309 E14.92098
G1 X157.292 Y102.821 E14.93747
G1 X156.140 Y103.622 E14.96639
G1 X124.823 Y103.622 E15.61185
G1 X124.676 Y103.168 E15.62169
G1 X124.387 Y101.959 E15.64730
G1 X124.241 Y100.967 E15.66798
G1 X124.206 Y100.524 F7800.000
G1 X125.900 Y100.813 F7800.000
G1 F4800
G1 X126.691 Y97.861 E15.74068
G1 E13.74068 F2400.00000
G92 E0
G1 X134.089 Y98.412 F7800.000
G1 E2.00000 F2400.00000
G1 F4800
G1 X126.433 Y98.412 E2.18217
G1 X126.383 Y98.621 E2.18728
G1 X126.145 Y100.236 E2.22613
G1 X126.383 Y101.851 E2.26497
G1 X126.433 Y102.060 E2.27009
G1 X137.738 Y102.060 E2.53907
G1 X133.624 Y97.947 E2.67749
G1 X145.517 Y97.947 E2.96045
G1 X149.630 Y102.060 E3.09888
G1 E1.09888 F2400.00000
G92 E0
G1 X151.661 Y102.145 F7800.000
G1 E2.00000 F2400.00000
G1 F4800
G1 X152.809 Y97.861 E2.10553
G1 E0.10553 F2400.00000
G92 E0
