; generated by Slic3r 1.3.0 on 2025-08-13 at 21:12:27

; external perimeters extrusion width = 0.55mm (7.28mm^3/s)
; perimeters extrusion width = 0.70mm (11.44mm^3/s)
; infill extrusion width = 0.63mm (13.45mm^3/s)
; solid infill extrusion width = 0.70mm (3.81mm^3/s)
; top infill extrusion width = 0.70mm (2.86mm^3/s)

M107
M104 S200 ; set temperature
G28 ; home all axes
G1 Z5 F5000 ; lift nozzle

; Filament gcode

M109 S200 ; set temperature and wait for it to be reached
G21 ; set units to millimeters
G90 ; use absolute coordinates
M82 ; use absolute distances for extrusion
G92 E0
G1 Z0.350 F7800.000
G1 E-2.00000 F2400.00000
G92 E0
G1 X64.464 Y88.590 F7800.000
G1 E2.00000 F2400.00000
G1 F1800
G1 X74.549 Y82.201 E2.33163
G1 X76.660 Y81.333 E2.39503
G1 X78.060 Y81.182 E2.43414
G1 X121.936 Y81.182 E3.65292
G1 X124.184 Y81.579 E3.71631
G1 X125.447 Y82.201 E3.75543
G1 X147.838 Y96.385 E4.49170
G1 X150.113 Y98.835 E4.58456
G1 X150.568 Y99.686 E4.61137
G1 X151.158 Y101.232 E4.65733
G1 X151.277 Y101.724 E4.67140
G1 X151.462 Y103.271 E4.71468
G1 X151.462 Y104.295 E4.74312
G1 X151.129 Y106.359 E4.80119
G1 X150.816 Y107.305 E4.82887
G1 X149.711 Y109.339 E4.89318
G1 X149.132 Y110.063 E4.91894
G1 X147.025 Y111.791 E4.99462
G1 X146.268 Y112.183 E5.01829
G1 X144.831 Y112.725 E5.06095
G1 X121.042 Y118.625 E5.74179
G1 X119.462 Y118.818 E5.78599
G1 X80.534 Y118.818 E6.86733
G1 X78.955 Y118.625 E6.91153
G1 X55.165 Y112.725 E7.59238
G1 X53.728 Y112.183 E7.63504
G1 X52.971 Y111.791 E7.65871
G1 X50.864 Y110.063 E7.73439
G1 X50.285 Y109.339 E7.76014
G1 X49.181 Y107.305 E7.82446
G1 X48.867 Y106.359 E7.85214
G1 X48.534 Y104.295 E7.91021
G1 X48.534 Y103.271 E7.93865
G1 X48.719 Y101.724 E7.98193
G1 X48.839 Y101.232 E7.99600
G1 X49.428 Y99.686 E8.04196
G1 X49.884 Y98.834 E8.06878
G1 X52.158 Y96.385 E8.16163
G1 X64.400 Y88.630 E8.56418
G1 E6.56418 F2400.00000
G92 E0
G1 X113.147 Y111.225 F7800.000
G1 E2.00000 F2400.00000
G1 F1800
G1 X113.065 Y111.233 E2.00227
G1 X112.617 Y111.189 E2.01478
G1 X112.186 Y111.058 E2.02729
G1 X111.789 Y110.846 E2.03979
G1 X111.441 Y110.560 E2.05230
G1 X111.155 Y110.212 E2.06481
G1 X110.943 Y109.815 E2.07731
G1 X110.813 Y109.384 E2.08982
G1 X110.768 Y108.936 E2.10233
G1 X110.813 Y108.488 E2.11483
G1 X110.943 Y108.057 E2.12734
G1 X111.155 Y107.660 E2.13985
G1 X111.441 Y107.312 E2.15235
G1 X111.789 Y107.027 E2.16486
G1 X112.188 Y106.813 E2.17741
G1 X112.625 Y106.683 E2.19010
G1 X113.065 Y106.639 E2.20238
G1 X113.513 Y106.684 E2.21489
G1 X113.944 Y106.814 E2.22739
G1 X114.341 Y107.027 E2.23990
G1 X114.689 Y107.312 E2.25241
G1 X114.975 Y107.660 E2.26491
G1 X115.187 Y108.057 E2.27742
G1 X115.318 Y108.488 E2.28993
G1 X115.362 Y108.936 E2.30243
G1 X115.318 Y109.384 E2.31494
G1 X115.187 Y109.815 E2.32745
G1 X114.975 Y110.212 E2.33995
G1 X114.689 Y110.560 E2.35246
G1 X114.341 Y110.846 E2.36497
G1 X113.944 Y111.058 E2.37747
G1 X113.513 Y111.189 E2.38998
G1 X113.221 Y111.218 E2.39813
G1 X113.096 Y110.710 F7800.000
G1 F1800
G1 X112.719 Y110.678 E2.40703
G1 X112.385 Y110.577 E2.41522
G1 X112.078 Y110.413 E2.42341
G1 X111.809 Y110.192 E2.43160
G1 X111.588 Y109.923 E2.43979
G1 X111.424 Y109.616 E2.44797
G1 X111.323 Y109.283 E2.45616
G1 X111.289 Y108.936 E2.46435
G1 X111.323 Y108.590 E2.47254
G1 X111.424 Y108.256 E2.48073
G1 X111.588 Y107.949 E2.48891
G1 X111.809 Y107.680 E2.49710
G1 X112.078 Y107.459 E2.50529
G1 X112.386 Y107.295 E2.51349
G1 X112.726 Y107.193 E2.52183
G1 X113.065 Y107.160 E2.52985
G1 X113.412 Y107.194 E2.53804
G1 X113.745 Y107.295 E2.54623
G1 X114.052 Y107.459 E2.55442
G1 X114.321 Y107.680 E2.56260
G1 X114.542 Y107.949 E2.57079
G1 X114.706 Y108.256 E2.57898
G1 X114.807 Y108.590 E2.58717
G1 X114.841 Y108.936 E2.59536
G1 X114.807 Y109.283 E2.60354
G1 X114.706 Y109.616 E2.61173
G1 X114.542 Y109.923 E2.61992
G1 X114.321 Y110.192 E2.62811
G1 X114.052 Y110.413 E2.63630
G1 X113.745 Y110.577 E2.64449
G1 X113.412 Y110.678 E2.65267
G1 X113.170 Y110.702 E2.65837
G1 X113.084 Y110.738 F7800.000
G1 E0.65837 F2400.00000
G92 E0
G1 X119.758 Y104.092 F7800.000
G1 E2.00000 F2400.00000
G1 F1800
G1 X119.515 Y103.848 E2.00957
G1 X119.109 Y102.864 E2.03915
G1 X119.109 Y91.928 E2.34292
G1 X119.516 Y90.944 E2.37250
G1 X120.250 Y90.210 E2.40134
G1 X120.875 Y89.902 E2.42067
G1 X122.756 Y89.784 E2.47303
G1 X138.231 Y100.430 E2.99479
G1 X138.703 Y101.312 E3.02257
G1 X138.836 Y101.862 E3.03830
G1 X138.836 Y102.834 E3.06531
G1 X138.522 Y103.783 E3.09307
G1 X137.904 Y104.555 E3.12054
G1 X137.030 Y105.008 E3.14789
G1 X121.253 Y105.013 E3.58613
G1 X120.268 Y104.605 E3.61574
G1 X119.811 Y104.145 E3.63375
G1 X120.126 Y103.727 F7800.000
G1 F1800
G1 X119.955 Y103.555 E3.63945
G1 X119.627 Y102.761 E3.65966
G1 X119.627 Y92.031 E3.91197
G1 X119.955 Y91.237 E3.93216
G1 X120.556 Y90.637 E3.95213
G1 X121.010 Y90.413 E3.96405
G1 X122.610 Y90.312 E4.00173
G1 X137.834 Y100.785 E4.43623
G1 X138.215 Y101.498 E4.45524
G1 X138.318 Y101.924 E4.46555
G1 X138.318 Y102.751 E4.48499
G1 X138.060 Y103.532 E4.50434
G1 X137.568 Y104.146 E4.52282
G1 X136.903 Y104.490 E4.54043
G1 X121.356 Y104.495 E4.90602
G1 X120.562 Y104.166 E4.92622
G1 X120.179 Y103.780 E4.93901
G1 X119.897 Y103.807 F7800.000
G1 E2.93901 F2400.00000
G92 E0
G1 X118.108 Y104.911 F7800.000
G1 E2.00000 F2400.00000
G1 F1800
G1 X118.108 Y110.903 E2.16645
G1 X115.134 Y110.903 E2.24908
G1 X115.444 Y110.525 E2.26264
G1 X115.708 Y110.031 E2.27822
G1 X115.871 Y109.494 E2.29380
G1 X115.926 Y108.936 E2.30937
G1 X115.871 Y108.378 E2.32495
G1 X115.708 Y107.842 E2.34053
G1 X115.444 Y107.347 E2.35610
G1 X115.088 Y106.914 E2.37168
G1 X114.654 Y106.558 E2.38726
G1 X114.160 Y106.293 E2.40283
G1 X113.623 Y106.131 E2.41841
G1 X113.065 Y106.076 E2.43399
G1 X112.516 Y106.130 E2.44931
G1 X111.973 Y106.292 E2.46506
G1 X111.476 Y106.558 E2.48071
G1 X111.042 Y106.914 E2.49629
G1 X110.687 Y107.347 E2.51187
G1 X110.422 Y107.842 E2.52744
G1 X110.260 Y108.378 E2.54302
G1 X110.205 Y108.936 E2.55860
G1 X110.260 Y109.494 E2.57417
G1 X110.422 Y110.031 E2.58975
G1 X110.687 Y110.525 E2.60533
G1 X110.997 Y110.903 E2.61889
G1 X89.134 Y110.903 E3.22619
G1 X89.444 Y110.525 E3.23976
G1 X89.708 Y110.031 E3.25534
G1 X89.871 Y109.494 E3.27091
G1 X89.926 Y108.936 E3.28649
G1 X89.871 Y108.378 E3.30207
G1 X89.708 Y107.842 E3.31764
G1 X89.444 Y107.347 E3.33322
G1 X89.088 Y106.914 E3.34880
G1 X88.654 Y106.558 E3.36437
G1 X88.160 Y106.293 E3.37995
G1 X87.623 Y106.131 E3.39553
G1 X87.065 Y106.076 E3.41110
G1 X86.507 Y106.131 E3.42668
G1 X85.970 Y106.293 E3.44226
G1 X85.476 Y106.558 E3.45783
G1 X85.042 Y106.914 E3.47341
G1 X84.687 Y107.347 E3.48899
G1 X84.422 Y107.842 E3.50456
G1 X84.260 Y108.378 E3.52014
G1 X84.205 Y108.936 E3.53572
G1 X84.260 Y109.494 E3.55129
G1 X84.422 Y110.031 E3.56687
G1 X84.687 Y110.525 E3.58244
G1 X84.997 Y110.903 E3.59601
G1 X81.888 Y110.903 E3.68236
G1 X81.888 Y104.911 E3.84881
G1 X80.209 Y104.917 E3.89544
G1 X80.957 Y104.164 E3.92490
G1 X81.449 Y102.975 E3.96065
G1 X81.449 Y91.816 E4.27062
G1 X80.956 Y90.626 E4.30639
G1 X80.093 Y89.764 E4.34027
G1 X79.325 Y89.353 E4.36448
G1 X78.164 Y89.280 E4.39678
G1 X78.453 Y89.097 E4.40628
G1 X84.238 Y89.097 E4.56697
G1 X83.855 Y89.406 E4.58062
G1 X83.392 Y89.920 E4.59985
G1 X83.013 Y90.501 E4.61912
G1 X82.723 Y91.132 E4.63842
G1 X82.528 Y91.800 E4.65775
G1 X82.430 Y92.489 E4.67708
G1 X82.423 Y101.214 E4.91945
G1 X82.469 Y101.736 E4.93398
G1 X82.614 Y102.404 E4.95299
G1 X82.856 Y103.056 E4.97230
G1 X83.192 Y103.664 E4.99158
G1 X83.614 Y104.213 E5.01083
G1 X84.116 Y104.689 E5.03005
G1 X84.687 Y105.078 E5.04925
G1 X85.315 Y105.367 E5.06844
G1 X85.968 Y105.541 E5.08722
G1 X86.483 Y105.598 E5.10160
G1 X96.665 Y105.602 E5.38445
G1 X97.257 Y105.473 E5.40127
G1 X97.785 Y105.196 E5.41785
G1 X98.086 Y104.964 E5.42839
G1 X98.472 Y104.561 E5.44390
G1 X98.801 Y104.078 E5.46012
G1 X99.062 Y103.555 E5.47638
G1 X99.264 Y102.995 E5.49290
G1 X99.410 Y102.408 E5.50970
G1 X99.509 Y101.761 E5.52790
G1 X99.531 Y92.389 E5.78822
G1 X99.463 Y91.760 E5.80580
G1 X99.344 Y91.162 E5.82273
G1 X99.174 Y90.599 E5.83906
G1 X98.940 Y90.047 E5.85573
G1 X98.644 Y89.540 E5.87203
G1 X98.286 Y89.097 E5.88785
G1 X101.861 Y89.097 E5.98714
G1 X101.661 Y89.305 E5.99515
G1 X101.330 Y89.787 E6.01140
G1 X101.068 Y90.312 E6.02770
G1 X100.866 Y90.872 E6.04422
G1 X100.720 Y91.459 E6.06102
G1 X100.621 Y92.107 E6.07923
G1 X100.600 Y101.478 E6.33954
G1 X100.667 Y102.107 E6.35712
G1 X100.786 Y102.705 E6.37405
G1 X100.960 Y103.279 E6.39071
G1 X101.191 Y103.822 E6.40709
G1 X101.485 Y104.325 E6.42330
G1 X101.832 Y104.757 E6.43868
G1 X102.097 Y105.009 E6.44885
G1 X102.581 Y105.341 E6.46515
G1 X103.141 Y105.548 E6.48173
G1 X103.515 Y105.602 E6.49224
G1 X113.950 Y105.578 E6.78208
G1 X114.652 Y105.423 E6.80205
G1 X115.291 Y105.160 E6.82125
G1 X115.878 Y104.795 E6.84044
G1 X116.398 Y104.340 E6.85966
G1 X116.833 Y103.817 E6.87854
G1 X117.198 Y103.215 E6.89810
G1 X117.465 Y102.571 E6.91747
G1 X117.633 Y101.909 E6.93644
G1 X117.708 Y101.228 E6.95547
G1 X117.689 Y92.339 E7.20239
G1 X117.563 Y91.631 E7.22237
G1 X117.343 Y90.970 E7.24169
G1 X117.031 Y90.350 E7.26098
G1 X116.630 Y89.785 E7.28024
G1 X116.147 Y89.289 E7.29946
G1 X115.888 Y89.097 E7.30841
G1 X121.543 Y89.097 E7.46549
G1 X121.832 Y89.280 E7.47499
G1 X120.727 Y89.349 E7.50574
G1 X119.919 Y89.748 E7.53077
G1 X119.041 Y90.626 E7.56528
G1 X118.548 Y91.816 E7.60106
G1 X118.548 Y102.975 E7.91103
G1 X119.039 Y104.164 E7.94678
G1 X119.787 Y104.917 E7.97624
G1 X118.183 Y104.911 E8.02078
G1 E6.02078 F2400.00000
G92 E0
G1 X116.375 Y103.490 F7800.000
G1 E2.00000 F2400.00000
G1 F1800
G1 X115.995 Y103.947 E2.01649
G1 X115.543 Y104.343 E2.03320
G1 X115.035 Y104.659 E2.04982
G1 X114.484 Y104.885 E2.06636
G1 X113.888 Y105.017 E2.08331
G1 X103.555 Y105.041 E2.37033
G1 X103.279 Y105.001 E2.37807
G1 X102.840 Y104.839 E2.39106
G1 X102.451 Y104.572 E2.40418
G1 X102.245 Y104.376 E2.41207
G1 X101.948 Y104.007 E2.42524
G1 X101.693 Y103.569 E2.43931
G1 X101.488 Y103.087 E2.45386
G1 X101.331 Y102.569 E2.46891
G1 X101.222 Y102.022 E2.48439
G1 X101.161 Y101.448 E2.50042
G1 X101.182 Y92.150 E2.75872
G1 X101.271 Y91.569 E2.77504
G1 X101.403 Y91.035 E2.79031
G1 X101.584 Y90.534 E2.80512
G1 X101.815 Y90.073 E2.81944
G1 X102.097 Y89.660 E2.83332
G1 X102.437 Y89.307 E2.84694
G1 X102.820 Y89.046 E2.85980
G1 X103.092 Y88.925 E2.86807
G1 X103.525 Y88.830 E2.88039
G1 X113.627 Y88.830 E3.16100
G1 X114.207 Y88.909 E3.17727
G1 X114.764 Y89.083 E3.19346
G1 X115.295 Y89.355 E3.21004
G1 X115.776 Y89.713 E3.22670
G1 X116.197 Y90.145 E3.24347
G1 X116.549 Y90.641 E3.26034
G1 X116.824 Y91.186 E3.27732
G1 X117.017 Y91.769 E3.29438
G1 X117.128 Y92.389 E3.31187
G1 X117.147 Y101.198 E3.55655
G1 X117.080 Y101.809 E3.57362
G1 X116.931 Y102.393 E3.59038
G1 X116.696 Y102.960 E3.60744
G1 X116.414 Y103.426 E3.62257
G1 X115.952 Y103.189 F7800.000
G1 F1800
G1 X115.623 Y103.584 E3.63466
G1 X115.233 Y103.926 E3.64685
G1 X114.798 Y104.197 E3.65890
G1 X114.328 Y104.389 E3.67083
G1 X113.831 Y104.499 E3.68282
G1 X103.592 Y104.523 E3.92358
G1 X103.407 Y104.496 E3.92796
G1 X103.080 Y104.376 E3.93615
G1 X102.778 Y104.168 E3.94477
G1 X102.627 Y104.025 E3.94966
G1 X102.376 Y103.712 E3.95909
G1 X102.157 Y103.336 E3.96932
G1 X101.976 Y102.910 E3.98021
G1 X101.834 Y102.443 E3.99170
G1 X101.735 Y101.944 E4.00366
G1 X101.679 Y101.421 E4.01602
G1 X101.700 Y92.189 E4.23310
G1 X101.779 Y91.671 E4.24544
G1 X101.900 Y91.186 E4.25718
G1 X102.061 Y90.738 E4.26838
G1 X102.262 Y90.336 E4.27895
G1 X102.500 Y89.989 E4.28885
G1 X102.773 Y89.705 E4.29811
G1 X103.073 Y89.500 E4.30664
G1 X103.254 Y89.420 E4.31130
G1 X103.581 Y89.348 E4.31918
G1 X113.592 Y89.348 E4.55457
G1 X114.094 Y89.416 E4.56649
G1 X114.567 Y89.564 E4.57813
G1 X115.020 Y89.797 E4.59012
G1 X115.434 Y90.104 E4.60224
G1 X115.798 Y90.478 E4.61451
G1 X116.104 Y90.908 E4.62693
G1 X116.344 Y91.385 E4.63949
G1 X116.514 Y91.897 E4.65216
G1 X116.611 Y92.435 E4.66502
G1 X116.629 Y101.170 E4.87041
G1 X116.569 Y101.716 E4.88333
G1 X116.438 Y102.229 E4.89578
G1 X116.232 Y102.726 E4.90841
G1 X115.991 Y103.125 E4.91939
G1 X115.952 Y103.189 F7800.000
G1 E2.91939 F2400.00000
G92 E0
G1 X98.948 Y101.717 F7800.000
G1 E2.00000 F2400.00000
G1 F1800
G1 X98.860 Y102.298 E2.01632
G1 X98.727 Y102.832 E2.03160
G1 X98.546 Y103.333 E2.04641
G1 X98.316 Y103.794 E2.06070
G1 X98.035 Y104.207 E2.07458
G1 X97.710 Y104.546 E2.08762
G1 X97.482 Y104.722 E2.09563
G1 X97.063 Y104.941 E2.10874
G1 X96.605 Y105.041 E2.12178
G1 X86.513 Y105.037 E2.40210
G1 X86.071 Y104.988 E2.41445
G1 X85.506 Y104.838 E2.43071
G1 X84.964 Y104.588 E2.44727
G1 X84.469 Y104.251 E2.46391
G1 X84.032 Y103.836 E2.48065
G1 X83.662 Y103.356 E2.49750
G1 X83.368 Y102.821 E2.51445
G1 X83.153 Y102.246 E2.53149
G1 X83.025 Y101.651 E2.54840
G1 X82.984 Y101.190 E2.56127
G1 X82.991 Y92.529 E2.80184
G1 X83.078 Y91.919 E2.81896
G1 X83.250 Y91.329 E2.83604
G1 X83.505 Y90.773 E2.85304
G1 X83.838 Y90.264 E2.86994
G1 X84.243 Y89.814 E2.88673
G1 X84.710 Y89.437 E2.90342
G1 X85.230 Y89.143 E2.92001
G1 X85.773 Y88.946 E2.93606
G1 X86.088 Y88.877 E2.94502
G1 X86.514 Y88.830 E2.95690
G1 X96.605 Y88.830 E3.23723
G1 X97.063 Y88.931 E3.25025
G1 X97.499 Y89.158 E3.26391
G1 X97.871 Y89.476 E3.27748
G1 X98.181 Y89.860 E3.29121
G1 X98.438 Y90.298 E3.30532
G1 X98.646 Y90.790 E3.32016
G1 X98.799 Y91.299 E3.33490
G1 X98.908 Y91.845 E3.35038
G1 X98.970 Y92.419 E3.36641
G1 X98.948 Y101.642 E3.62262
G1 X98.430 Y101.678 F7800.000
G1 F1800
G1 X98.351 Y102.196 E3.63497
G1 X98.231 Y102.681 E3.64671
G1 X98.069 Y103.129 E3.65791
G1 X97.868 Y103.531 E3.66847
G1 X97.631 Y103.879 E3.67839
G1 X97.363 Y104.159 E3.68750
G1 X97.201 Y104.284 E3.69229
G1 X96.885 Y104.450 E3.70069
G1 X96.549 Y104.523 E3.70878
G1 X86.542 Y104.519 E3.94409
G1 X86.167 Y104.478 E3.95296
G1 X85.682 Y104.349 E3.96476
G1 X85.220 Y104.136 E3.97672
G1 X84.795 Y103.847 E3.98880
G1 X84.418 Y103.489 E4.00103
G1 X84.097 Y103.071 E4.01342
G1 X83.840 Y102.605 E4.02594
G1 X83.652 Y102.101 E4.03859
G1 X83.538 Y101.573 E4.05127
G1 X83.502 Y101.167 E4.06086
G1 X83.509 Y92.566 E4.26310
G1 X83.585 Y92.029 E4.27587
G1 X83.737 Y91.511 E4.28857
G1 X83.960 Y91.024 E4.30116
G1 X84.250 Y90.580 E4.31362
G1 X84.600 Y90.191 E4.32592
G1 X85.002 Y89.867 E4.33808
G1 X85.447 Y89.615 E4.35010
G1 X85.918 Y89.445 E4.36187
G1 X86.173 Y89.389 E4.36800
G1 X86.542 Y89.348 E4.37673
G1 X96.549 Y89.348 E4.61205
G1 X96.885 Y89.422 E4.62013
G1 X97.207 Y89.590 E4.62869
G1 X97.498 Y89.838 E4.63767
G1 X97.754 Y90.155 E4.64724
G1 X97.973 Y90.531 E4.65748
G1 X98.158 Y90.967 E4.66861
G1 X98.296 Y91.424 E4.67985
G1 X98.396 Y91.923 E4.69181
G1 X98.452 Y92.446 E4.70417
G1 X98.430 Y101.603 E4.91948
G1 X98.430 Y101.678 F7800.000
G1 E2.91948 F2400.00000
G92 E0
G1 X80.888 Y101.678 F7800.000
G1 E2.00000 F2400.00000
G1 F1800
G1 X80.888 Y102.864 E2.03294
G1 X80.481 Y103.848 E2.06252
G1 X79.728 Y104.605 E2.09218
G1 X78.743 Y105.013 E2.12180
G1 X62.967 Y105.008 E2.56003
G1 X62.092 Y104.555 E2.58739
G1 X61.474 Y103.783 E2.61486
G1 X61.160 Y102.834 E2.64262
G1 X61.160 Y101.862 E2.66962
G1 X61.293 Y101.312 E2.68535
G1 X61.765 Y100.430 E2.71313
G1 X77.240 Y89.784 E3.23489
G1 X79.168 Y89.905 E3.28854
G1 X79.756 Y90.219 E3.30705
G1 X80.480 Y90.944 E3.33551
G1 X80.888 Y91.928 E3.36509
G1 X80.888 Y101.603 E3.63384
G1 X80.370 Y101.678 F7800.000
G1 F1800
G1 X80.370 Y102.761 E3.65931
G1 X80.041 Y103.555 E3.67952
G1 X79.434 Y104.166 E3.69978
G1 X78.640 Y104.495 E3.71998
G1 X63.093 Y104.490 E4.08556
G1 X62.428 Y104.146 E4.10317
G1 X61.937 Y103.532 E4.12166
G1 X61.678 Y102.751 E4.14101
G1 X61.678 Y101.924 E4.16044
G1 X61.781 Y101.498 E4.17075
