; generated by Slic3r 1.3.0 on 2025-08-13 at 21:13:29

; external perimeters extrusion width = 0.55mm (7.28mm^3/s)
; perimeters extrusion width = 0.70mm (11.44mm^3/s)
; infill extrusion width = 0.63mm (13.45mm^3/s)
; solid infill extrusion width = 0.70mm (3.81mm^3/s)
; top infill extrusion width = 0.70mm (2.86mm^3/s)

M107
M104 S200 ; set temperature
G28 ; home all axes
G1 Z5 F5000 ; lift nozzle

; Filament gcode

M109 S200 ; set temperature and wait for it to be reached
G21 ; set units to millimeters
G90 ; use absolute coordinates
M82 ; use absolute distances for extrusion
G92 E0
G1 Z0.350 F7800.000
G1 E-2.00000 F2400.00000
G92 E0
G1 X92.070 Y86.366 F7800.000
G1 E2.00000 F2400.00000
G1 F1800
G1 X93.628 Y84.699 E2.06340
G1 X95.663 Y83.665 E2.12679
G1 X97.570 Y83.382 E2.18036
G1 X106.938 Y83.387 E2.44056
G1 X109.185 Y83.786 E2.50396
G1 X111.160 Y84.930 E2.56736
G1 X112.623 Y86.681 E2.63075
G1 X113.494 Y89.948 E2.72467
G1 X113.494 Y98.652 E2.96644
G1 X113.097 Y100.899 E3.02984
G1 X111.954 Y102.875 E3.09323
G1 X110.204 Y104.340 E3.15663
G1 X108.058 Y105.116 E3.22003
G1 X106.810 Y105.212 E3.25478
G1 X95.478 Y104.996 E3.56963
G1 X93.239 Y104.554 E3.63303
G1 X91.286 Y103.372 E3.69643
G1 X89.857 Y101.593 E3.75982
G1 X89.124 Y99.431 E3.82322
G1 X89.217 Y96.961 E3.89189
G1 X91.178 Y88.467 E4.13404
G1 X92.041 Y86.435 E4.19535
G1 E2.19535 F2400.00000
G92 E0
G1 X104.516 Y96.117 F7800.000
G1 E2.00000 F2400.00000
G1 F1800
G1 X104.091 Y96.465 E2.01525
G1 X103.607 Y96.724 E2.03050
G1 X103.082 Y96.884 E2.04575
G1 X102.535 Y96.937 E2.06100
G1 X101.989 Y96.884 E2.07625
G1 X101.464 Y96.724 E2.09150
G1 X100.979 Y96.465 E2.10675
G1 X100.555 Y96.117 E2.12200
G1 X100.207 Y95.693 E2.13725
G1 X99.948 Y95.209 E2.15250
G1 X99.789 Y94.683 E2.16775
G1 X99.735 Y94.137 E2.18300
G1 X99.789 Y93.591 E2.19825
G1 X99.948 Y93.065 E2.21350
G1 X100.207 Y92.581 E2.22875
G1 X100.555 Y92.157 E2.24400
G1 X100.979 Y91.808 E2.25925
G1 X101.471 Y91.546 E2.27472
G1 X102.015 Y91.388 E2.29047
G1 X102.535 Y91.336 E2.30499
G1 X103.082 Y91.390 E2.32024
G1 X103.607 Y91.550 E2.33549
G1 X104.091 Y91.808 E2.35074
G1 X104.516 Y92.157 E2.36599
G1 X104.864 Y92.581 E2.38124
G1 X105.123 Y93.065 E2.39649
G1 X105.282 Y93.591 E2.41174
G1 X105.336 Y94.137 E2.42699
G1 X105.282 Y94.683 E2.44224
G1 X105.123 Y95.209 E2.45749
G1 X104.864 Y95.693 E2.47274
G1 X104.563 Y96.059 E2.48590
G1 X104.117 Y95.719 F7800.000
G1 F1800
G1 X103.778 Y95.997 E2.49808
G1 X103.391 Y96.203 E2.51026
G1 X102.972 Y96.331 E2.52244
G1 X102.535 Y96.374 E2.53462
G1 X102.099 Y96.331 E2.54680
G1 X101.679 Y96.203 E2.55898
G1 X101.293 Y95.997 E2.57116
G1 X100.954 Y95.719 E2.58334
G1 X100.675 Y95.380 E2.59552
G1 X100.469 Y94.993 E2.60770
G1 X100.341 Y94.573 E2.61988
G1 X100.298 Y94.137 E2.63206
G1 X100.341 Y93.700 E2.64424
G1 X100.469 Y93.281 E2.65642
G1 X100.675 Y92.894 E2.66860
G1 X100.954 Y92.555 E2.68078
G1 X101.293 Y92.277 E2.69296
G1 X101.684 Y92.068 E2.70528
G1 X102.122 Y91.941 E2.71796
G1 X102.535 Y91.900 E2.72950
G1 X102.972 Y91.943 E2.74168
G1 X103.391 Y92.070 E2.75386
G1 X103.778 Y92.277 E2.76604
G1 X104.117 Y92.555 E2.77822
G1 X104.395 Y92.894 E2.79040
G1 X104.602 Y93.281 E2.80258
G1 X104.729 Y93.700 E2.81476
G1 X104.772 Y94.137 E2.82694
G1 X104.729 Y94.573 E2.83912
G1 X104.602 Y94.993 E2.85130
G1 X104.395 Y95.380 E2.86348
G1 X104.164 Y95.661 E2.87357
G1 X103.749 Y95.350 F7800.000
G1 F1800
G1 X103.489 Y95.564 E2.88149
G1 X103.192 Y95.723 E2.88940
G1 X102.870 Y95.820 E2.89731
G1 X102.535 Y95.853 E2.90522
G1 X102.200 Y95.820 E2.91313
G1 X101.878 Y95.723 E2.92104
G1 X101.582 Y95.564 E2.92896
G1 X101.322 Y95.350 E2.93687
G1 X101.108 Y95.090 E2.94478
G1 X100.950 Y94.794 E2.95269
G1 X100.852 Y94.472 E2.96060
G1 X100.819 Y94.137 E2.96851
G1 X100.852 Y93.802 E2.97642
G1 X100.950 Y93.480 E2.98434
G1 X101.108 Y93.183 E2.99225
G1 X101.322 Y92.923 E3.00016
G1 X101.582 Y92.710 E3.00807
G1 X101.880 Y92.550 E3.01602
G1 X102.220 Y92.452 E3.02436
G1 X102.535 Y92.421 E3.03180
G1 X102.870 Y92.454 E3.03971
G1 X103.192 Y92.551 E3.04762
G1 X103.489 Y92.710 E3.05553
G1 X103.749 Y92.923 E3.06344
G1 X103.962 Y93.183 E3.07136
G1 X104.121 Y93.480 E3.07927
G1 X104.219 Y93.802 E3.08718
G1 X104.252 Y94.137 E3.09509
G1 X104.219 Y94.472 E3.10300
G1 X104.121 Y94.794 E3.11091
G1 X103.962 Y95.090 E3.11882
G1 X103.796 Y95.293 E3.12497
G1 X103.749 Y95.350 F7800.000
G1 E1.12497 F2400.00000
G92 E0
G1 X105.579 Y97.272 F7800.000
G1 E2.00000 F2400.00000
G1 F1800
G1 X97.304 Y97.115 E2.22990
G1 X98.647 Y91.297 E2.39574
G1 X105.579 Y91.301 E2.58829
G1 X105.579 Y97.197 E2.75206
G1 X106.140 Y97.844 F7800.000
G1 F1800
G1 X96.602 Y97.663 E3.01706
G1 X98.201 Y90.736 E3.21452
G1 X106.140 Y90.741 E3.43505
G1 X106.140 Y97.769 E3.63027
G1 X106.658 Y98.372 F7800.000
G1 F1800
G1 X95.954 Y98.168 E3.88202
G1 X97.789 Y90.218 E4.07388
G1 X106.658 Y90.223 E4.28243
G1 X106.658 Y98.297 E4.47227
G1 X106.175 Y98.243 F7800.000
G1 E2.47227 F2400.00000
G92 E0
G1 X100.053 Y96.828 F7800.000
G1 E2.00000 F2400.00000
G1 F1800
G1 X100.490 Y96.392 E2.01830
G1 X100.375 Y96.298 E2.02272
G1 X100.087 Y95.947 E2.03615
G1 X99.222 Y96.813 E2.07244
G1 X98.391 Y96.797 E2.09710
G1 X99.762 Y95.425 E2.15463
G1 X99.645 Y95.206 E2.16199
G1 X99.526 Y94.814 E2.17414
G1 X97.858 Y96.482 E2.24411
G1 X98.112 Y95.381 E2.27763
G1 X99.406 Y94.087 E2.33187
G1 X99.389 Y93.919 E2.33691
G1 X99.454 Y93.262 E2.35646
G1 X99.484 Y93.162 E2.35957
G1 X98.367 Y94.280 E2.40645
G1 X98.621 Y93.178 E2.43997
G1 X100.158 Y91.641 E2.50445
G1 X99.312 Y91.640 E2.52955
G1 X98.875 Y92.077 E2.54786
G1 Z0.650 F7800.000
G1 E0.54786 F2400.00000
G92 E0
G1 X104.599 Y96.200 F7800.000
G1 E2.00000 F2400.00000
G1 F900
G1 X104.157 Y96.563 E2.01543
G1 X103.652 Y96.833 E2.03087
G1 X103.105 Y96.999 E2.04630
G1 X102.535 Y97.055 E2.06173
G1 X101.966 Y96.999 E2.07717
G1 X101.418 Y96.833 E2.09260
G1 X100.914 Y96.563 E2.10803
G1 X100.472 Y96.200 E2.12347
G1 X100.109 Y95.758 E2.13890
G1 X99.839 Y95.254 E2.15433
G1 X99.673 Y94.706 E2.16977
G1 X99.617 Y94.137 E2.18520
G1 X99.673 Y93.568 E2.20063
G1 X99.839 Y93.020 E2.21606
G1 X100.109 Y92.516 E2.23150
G1 X100.472 Y92.073 E2.24693
G1 X100.914 Y91.710 E2.26236
G1 X101.439 Y91.430 E2.27841
G1 X102.041 Y91.267 E2.29525
G1 X102.535 Y91.219 E2.30865
G1 X103.105 Y91.275 E2.32408
G1 X103.652 Y91.441 E2.33951
G1 X104.157 Y91.710 E2.35494
G1 X104.599 Y92.073 E2.37038
G1 X104.962 Y92.516 E2.38581
G1 X105.231 Y93.020 E2.40124
G1 X105.398 Y93.568 E2.41668
G1 X105.453 Y94.132 E2.43198
G1 X105.401 Y94.693 E2.44718
G1 X105.231 Y95.254 E2.46298
G1 X104.962 Y95.758 E2.47842
G1 X104.646 Y96.142 E2.49183
G1 X104.147 Y95.749 F7800.000
G1 F900
G1 X103.802 Y96.032 E2.50388
G1 X103.408 Y96.243 E2.51594
G1 X102.980 Y96.373 E2.52799
G1 X102.535 Y96.417 E2.54005
G1 X102.091 Y96.373 E2.55210
G1 X101.663 Y96.243 E2.56416
G1 X101.269 Y96.032 E2.57621
G1 X100.923 Y95.749 E2.58827
G1 X100.640 Y95.403 E2.60033
G1 X100.429 Y95.009 E2.61238
G1 X100.299 Y94.582 E2.62444
G1 X100.256 Y94.137 E2.63649
G1 X100.299 Y93.692 E2.64855
G1 X100.429 Y93.264 E2.66060
G1 X100.640 Y92.870 E2.67266
G1 X100.923 Y92.525 E2.68472
G1 X101.269 Y92.241 E2.69677
G1 X101.674 Y92.025 E2.70918
G1 X102.156 Y91.895 E2.72263
G1 X102.535 Y91.857 E2.73292
G1 X102.980 Y91.901 E2.74497
G1 X103.408 Y92.031 E2.75703
G1 X103.802 Y92.241 E2.76908
G1 X104.147 Y92.525 E2.78114
G1 X104.431 Y92.870 E2.79319
G1 X104.641 Y93.264 E2.80525
G1 X104.771 Y93.692 E2.81731
G1 X104.815 Y94.134 E2.82929
G1 X104.774 Y94.571 E2.84111
G1 X104.641 Y95.009 E2.85348
G1 X104.431 Y95.403 E2.86553
G1 X104.195 Y95.691 E2.87557
G1 X103.749 Y95.350 F7800.000
G1 F900
G1 X103.489 Y95.564 E2.88250
G1 X103.192 Y95.723 E2.88943
G1 X102.870 Y95.820 E2.89637
G1 X102.535 Y95.853 E2.90330
G1 X102.200 Y95.820 E2.91024
G1 X101.878 Y95.723 E2.91717
G1 X101.582 Y95.564 E2.92411
G1 X101.322 Y95.350 E2.93104
G1 X101.108 Y95.090 E2.93798
G1 X100.950 Y94.794 E2.94491
G1 X100.852 Y94.472 E2.95185
G1 X100.819 Y94.137 E2.95878
G1 X100.852 Y93.802 E2.96571
G1 X100.950 Y93.480 E2.97265
G1 X101.108 Y93.183 E2.97958
G1 X101.322 Y92.923 E2.98652
G1 X101.582 Y92.710 E2.99345
G1 X101.882 Y92.549 E3.00047
G1 X102.257 Y92.448 E3.00848
G1 X102.535 Y92.421 E3.01424
G1 X102.870 Y92.454 E3.02117
G1 X103.192 Y92.551 E3.02811
G1 X103.489 Y92.710 E3.03504
G1 X103.749 Y92.923 E3.04198
G1 X103.962 Y93.183 E3.04891
G1 X104.121 Y93.480 E3.05585
G1 X104.219 Y93.802 E3.06278
G1 X104.252 Y94.136 E3.06970
G1 X104.221 Y94.462 E3.07645
G1 X104.121 Y94.794 E3.08359
G1 X103.962 Y95.090 E3.09052
G1 X103.796 Y95.293 E3.09591
G1 X103.749 Y95.350 F7800.000
G1 E1.09591 F2400.00000
G92 E0
G1 X105.462 Y97.868 F7800.000
G1 E2.00000 F2400.00000
G1 F900
G1 X97.289 Y97.702 E2.22052
G1 X98.905 Y90.703 E2.41429
G1 X105.462 Y90.703 E2.59118
G1 X105.462 Y97.793 E2.78243
G1 X106.097 Y98.516 F7800.000
G1 F900
G1 X96.494 Y98.322 E3.04156
G1 X98.399 Y90.068 E3.27009
G1 X106.097 Y90.068 E3.47776
G1 X106.097 Y98.441 E3.70366
G1 E1.70366 F2400.00000
G92 E0
G1 X106.658 Y89.698 F7800.000
G1 E2.00000 F2400.00000
G1 F3000
G1 X106.658 Y98.897 E2.18959

G1 F3600
G1 X106.658 Y99.089 E2.19492
G1 X95.792 Y98.868 E2.49681
G1 X95.833 Y98.691 E2.50185

G1 F3000
G1 X97.910 Y89.693 E2.69219

G1 F3600
G1 X97.953 Y89.507 E2.69750
G1 X106.658 Y89.507 E2.93929
G1 X106.658 Y89.623 E2.94252

G1 E0.94252 F2400.00000
G92 E0
G1 X100.612 Y91.586 F7800.000
G1 E2.00000 F2400.00000
G1 F1200
G1 X100.117 Y91.092 E2.02105
G1 X99.163 Y91.092 E2.04977
G1 X99.154 Y91.131 E2.05099
G1 X100.098 Y92.075 E2.09117
G1 X99.825 Y92.408 E2.10413
G1 X99.687 Y92.667 E2.11297
G1 X98.966 Y91.946 E2.14364
G1 X98.778 Y92.761 E2.16881
G1 X99.390 Y93.373 E2.19487
G1 X99.294 Y93.690 E2.20484
G1 X99.241 Y94.227 E2.22108
G1 X98.590 Y93.576 E2.24880
G1 X98.402 Y94.391 E2.27398
G1 X99.383 Y95.372 E2.31575
G1 X99.496 Y95.745 E2.32749
G1 X99.825 Y96.360 E2.34848
G1 X100.267 Y96.899 E2.36947
G1 X100.806 Y97.342 E2.39046
G1 X100.881 Y97.381 E2.39300
G1 X100.379 Y97.371 E2.40810
G1 X98.213 Y95.206 E2.50029
G1 X98.025 Y96.020 E2.52546
G1 X99.355 Y97.351 E2.58209
G1 X98.332 Y97.330 E2.61291
G1 X97.837 Y96.835 E2.63396
G1 E0.63396 F2400.00000
G92 E0
G1 X104.545 Y97.456 F7800.000
G1 E2.00000 F2400.00000
G1 F1200
G1 X104.051 Y96.961 E2.01889
G1 X104.264 Y96.847 E2.02542
G1 X104.579 Y96.589 E2.03642
G1 X105.073 Y97.083 E2.05531
G1 Z0.950 F7800.000
G1 E0.05531 F2400.00000
G92 E0
G1 X104.147 Y92.525 F7800.000
G1 E2.00000 F2400.00000
G1 F900
G1 X104.431 Y92.870 E2.01206
G1 X104.641 Y93.264 E2.02411
G1 X104.771 Y93.692 E2.03617
G1 X104.815 Y94.137 E2.04822
G1 X104.771 Y94.582 E2.06028
G1 X104.641 Y95.009 E2.07233
G1 X104.431 Y95.403 E2.08439
G1 X104.147 Y95.749 E2.09644
G1 X103.802 Y96.032 E2.10850
G1 X103.408 Y96.243 E2.12056
G1 X102.980 Y96.373 E2.13261
G1 X102.535 Y96.417 E2.14467
G1 X102.091 Y96.373 E2.15672
G1 X101.663 Y96.243 E2.16878
G1 X101.269 Y96.032 E2.18083
G1 X100.923 Y95.749 E2.19289
G1 X100.640 Y95.403 E2.20495
G1 X100.429 Y95.009 E2.21700
G1 X100.299 Y94.582 E2.22906
G1 X100.256 Y94.137 E2.24111
G1 X100.299 Y93.692 E2.25317
G1 X100.429 Y93.264 E2.26522
G1 X100.640 Y92.870 E2.27728
G1 X100.923 Y92.525 E2.28933
G1 X101.269 Y92.241 E2.30139
G1 X101.663 Y92.031 E2.31345
G1 X102.091 Y91.901 E2.32550
G1 X102.535 Y91.857 E2.33756
G1 X102.980 Y91.901 E2.34961
G1 X103.408 Y92.031 E2.36167
G1 X103.802 Y92.241 E2.37372
G1 X104.089 Y92.477 E2.38376
G1 X103.749 Y92.923 F7800.000
G1 F900
G1 X103.962 Y93.183 E2.39069
G1 X104.121 Y93.480 E2.39762
G1 X104.219 Y93.802 E2.40456
G1 X104.252 Y94.137 E2.41149
G1 X104.219 Y94.472 E2.41843
G1 X104.121 Y94.794 E2.42536
G1 X103.962 Y95.090 E2.43230
G1 X103.749 Y95.350 E2.43923
G1 X103.489 Y95.564 E2.44617
G1 X103.192 Y95.723 E2.45310
G1 X102.870 Y95.820 E2.46004
G1 X102.535 Y95.853 E2.46697
G1 X102.200 Y95.820 E2.47390
G1 X101.878 Y95.723 E2.48084
G1 X101.582 Y95.564 E2.48777
G1 X101.322 Y95.350 E2.49471
G1 X101.108 Y95.090 E2.50164
G1 X100.950 Y94.794 E2.50858
G1 X100.852 Y94.472 E2.51551
G1 X100.819 Y94.137 E2.52245
G1 X100.852 Y93.802 E2.52938
G1 X100.950 Y93.480 E2.53632
G1 X101.108 Y93.183 E2.54325
G1 X101.322 Y92.923 E2.55018
G1 X101.582 Y92.710 E2.55712
G1 X101.878 Y92.551 E2.56405
G1 X102.200 Y92.454 E2.57099
G1 X102.535 Y92.421 E2.57792
G1 X102.870 Y92.454 E2.58486
G1 X103.192 Y92.551 E2.59179
G1 X103.489 Y92.710 E2.59873
G1 X103.691 Y92.876 E2.60412
G1 X103.749 Y92.923 F7800.000
G1 E0.60412 F2400.00000
G92 E0
G1 X100.068 Y91.775 F7800.000
G1 E2.00000 F2400.00000
G1 F3600
G1 X98.657 Y91.775 E2.03804
G1 X99.000 Y90.291 E2.07914
G1 X105.462 Y90.291 E2.25345
G1 X105.462 Y98.279 E2.46894
G1 X97.196 Y98.106 E2.69198
G1 X97.499 Y96.794 E2.72828
G1 X100.068 Y96.794 E2.79758
G1 X100.068 Y95.681 E2.82761
G1 X100.109 Y95.758 E2.82997
G1 X100.472 Y96.200 E2.84541
G1 X100.914 Y96.563 E2.86084
G1 X101.418 Y96.833 E2.87627
G1 X101.966 Y96.999 E2.89171
G1 X102.535 Y97.055 E2.90714
G1 X103.105 Y96.999 E2.92257
G1 X103.652 Y96.833 E2.93800
G1 X104.157 Y96.563 E2.95344
G1 X104.599 Y96.200 E2.96887
G1 X104.962 Y95.758 E2.98430
G1 X105.231 Y95.254 E2.99974
G1 X105.398 Y94.706 E3.01517
G1 X105.454 Y94.137 E3.03060
G1 X105.398 Y93.568 E3.04604
G1 X105.231 Y93.020 E3.06147
G1 X104.962 Y92.516 E3.07690
G1 X104.599 Y92.073 E3.09234
G1 X104.157 Y91.710 E3.10777
G1 X103.652 Y91.441 E3.12320
G1 X103.105 Y91.275 E3.13864
G1 X102.535 Y91.219 E3.15407
G1 X101.966 Y91.275 E3.16950
G1 X101.418 Y91.441 E3.18494
G1 X100.914 Y91.710 E3.20037
G1 X100.472 Y92.073 E3.21580
G1 X100.109 Y92.516 E3.23124
G1 X100.068 Y92.593 E3.23359
G1 X100.068 Y91.850 E3.25362
G1 X99.432 Y92.411 F7800.000
G1 F900
G1 X97.858 Y92.411 E3.29608
G1 X98.494 Y89.655 E3.37237
G1 X106.097 Y89.655 E3.57747
G1 X106.097 Y98.928 E3.82762
G1 X96.401 Y98.725 E4.08926
G1 X96.993 Y96.159 E4.16030
G1 X99.432 Y96.159 E4.22609
G1 X99.432 Y92.486 E4.32518
G1 X98.871 Y92.971 F7800.000
G1 F3000
G1 X97.153 Y92.971 E4.36058
G1 X98.049 Y89.095 E4.44259
G1 X106.658 Y89.095 E4.62003
G1 X106.658 Y99.500 E4.83450
G1 X95.699 Y99.271 E5.06042
G1 X96.547 Y95.598 E5.13810
G1 X98.871 Y95.598 E5.18601
G1 X98.871 Y93.046 E5.23860
G1 X98.991 Y92.486 F7800.000
G1 E3.23860 F2400.00000
G92 E0
G1 X99.706 Y91.174 F7800.000
G1 E2.00000 F2400.00000
G1 F1200
G1 X99.258 Y91.174 E2.01450
G1 X99.209 Y91.387 E2.02157
G1 X99.493 Y91.387 E2.03076
G1 X100.201 Y90.679 E2.06315
G1 X101.279 Y90.679 E2.09807
G1 X100.785 Y91.174 E2.12071
G1 E0.12071 F2400.00000
G92 E0
G1 X103.935 Y91.250 F7800.000
G1 E2.00000 F2400.00000
G1 F1200
G1 X104.506 Y90.679 E2.02615
G1 X105.073 Y91.190 F7800.000
G1 F1200
G1 X104.579 Y91.685 E2.04878
G1 E0.04878 F2400.00000
G92 E0
G1 X104.267 Y97.110 F7800.000
G1 E2.00000 F2400.00000
G1 F1200
G1 X103.522 Y97.855 E2.02975
G1 X104.579 Y97.877 F7800.000
G1 F1200
G1 X105.073 Y97.383 E2.04949
G1 E0.04949 F2400.00000
G92 E0
G1 X101.882 Y97.316 F7800.000
G1 E2.00000 F2400.00000
G1 F1200
G1 X101.387 Y97.810 E2.01974
G1 X100.466 Y97.791 F7800.000
G1 F1200
G1 X101.199 Y97.057 E2.04903
G1 X100.950 Y96.924 E2.05700
G1 X100.950 Y97.183 E2.06430
G1 X100.133 Y97.183 E2.08737
G1 X99.544 Y97.771 E2.11088
G1 X98.623 Y97.752 E2.13690
G1 X99.192 Y97.183 E2.15964
G1 X98.251 Y97.183 E2.18620
G1 X97.757 Y97.677 E2.20594
M106 S252.45
G1 Z1.250 F7800.000
G1 E0.20594 F2400.00000
G92 E0
G1 X100.379 Y93.429 F7800.000
G1 E2.00000 F2400.00000
G1 F900
G1 X100.429 Y93.264 E2.00463
G1 X100.640 Y92.870 E2.01669
G1 X100.923 Y92.525 E2.02874
G1 X101.269 Y92.241 E2.04080
G1 X101.663 Y92.031 E2.05285
G1 X102.091 Y91.901 E2.06491
G1 X102.535 Y91.857 E2.07697
G1 X102.980 Y91.901 E2.08902
G1 X103.408 Y92.031 E2.10108
