; generated by Slic3r 1.3.0 on 2025-08-13 at 21:14:25

; external perimeters extrusion width = 0.55mm (7.28mm^3/s)
; perimeters extrusion width = 0.70mm (11.44mm^3/s)
; infill extrusion width = 0.63mm (13.45mm^3/s)
; solid infill extrusion width = 0.70mm (3.81mm^3/s)
; top infill extrusion width = 0.70mm (2.86mm^3/s)

M107
M104 S200 ; set temperature
G28 ; home all axes
G1 Z5 F5000 ; lift nozzle

; Filament gcode

M109 S200 ; set temperature and wait for it to be reached
G21 ; set units to millimeters
G90 ; use absolute coordinates
M82 ; use absolute distances for extrusion
G92 E0
G1 Z0.350 F7800.000
G1 E-2.00000 F2400.00000
G92 E0
G1 X48.827 Y53.873 F7800.000
G1 E2.00000 F2400.00000
G1 F1800
G1 X74.113 Y-16.388 E4.07423
G1 X75.248 Y-18.368 E4.13763
G1 X76.992 Y-19.840 E4.20102
G1 X79.135 Y-20.625 E4.26442
G1 X80.287 Y-20.727 E4.29653
G1 X119.713 Y-20.727 E5.39172
G1 X121.961 Y-20.330 E5.45511
G1 X123.936 Y-19.187 E5.51851
G1 X125.401 Y-17.437 E5.58191
G1 X125.887 Y-16.388 E5.61402
G1 X151.173 Y53.873 E7.68825
G1 X151.561 Y56.095 E7.75090
G1 X151.561 Y129.542 E9.79111
G1 X151.336 Y131.246 E9.83884
G1 X130.327 Y209.393 E12.08666
G1 X129.263 Y211.595 E12.15461
G1 X124.464 Y218.071 E12.37850
G1 X122.808 Y219.641 E12.44190
G1 X120.713 Y220.548 E12.50530
G1 X119.193 Y220.727 E12.54783
G1 X80.807 Y220.727 E13.61409
G1 X78.560 Y220.330 E13.67748
G1 X76.584 Y219.187 E13.74088
G1 X75.536 Y218.071 E13.78341
G1 X70.737 Y211.595 E14.00731
G1 X69.673 Y209.393 E14.07525
G1 X48.664 Y131.246 E16.32308
G1 X48.439 Y129.542 E16.37081
G1 X48.439 Y56.095 E18.41102
G1 X48.814 Y53.947 E18.47158
G1 E16.47158 F2400.00000
G92 E0
G1 X87.000 Y-5.729 F7800.000
G1 E2.00000 F2400.00000
G1 F1800
G1 X83.876 Y-7.533 E2.08483
G1 X83.876 Y-11.140 E2.16966
G1 X87.000 Y-12.944 E2.25448
G1 X90.124 Y-11.140 E2.33931
G1 X90.124 Y-7.533 E2.42414
G1 X87.065 Y-5.766 E2.50721
G1 X86.750 Y-5.296 F7800.000
G1 E0.50721 F2400.00000
G92 E0
G1 X109.876 Y-7.533 F7800.000
G1 E2.00000 F2400.00000
G1 F1800
G1 X109.876 Y-11.140 E2.08483
G1 X113.000 Y-12.944 E2.16966
G1 X116.124 Y-11.140 E2.25448
G1 X116.124 Y-7.533 E2.33931
G1 X113.000 Y-5.729 E2.42414
G1 X109.941 Y-7.495 E2.50721
G1 X109.376 Y-7.533 F7800.000
G1 E0.50721 F2400.00000
G92 E0
G1 X100.000 Y190.464 F7800.000
G1 E2.00000 F2400.00000
G1 F1800
G1 X104.203 Y192.890 E2.13482
G1 X104.203 Y197.744 E2.26963
G1 X100.000 Y200.170 E2.40445
G1 X95.797 Y197.744 E2.53927
G1 X95.797 Y192.890 E2.67408
G1 X99.935 Y190.501 E2.80682
G1 X100.000 Y191.111 F7800.000
G1 F1800
G1 X103.642 Y193.214 E2.92364
G1 X103.642 Y197.420 E3.04046
G1 X100.000 Y199.523 E3.15728
G1 X96.358 Y197.420 E3.27411
G1 X96.358 Y193.214 E3.39093
G1 X99.935 Y191.149 E3.50567
G1 X100.000 Y191.709 F7800.000
G1 F1800
G1 X103.124 Y193.513 E3.59050
G1 X103.124 Y197.121 E3.67533
G1 X100.000 Y198.924 E3.76015
G1 X96.876 Y197.121 E3.84498
G1 X96.876 Y193.513 E3.92981
G1 X99.935 Y191.747 E4.01287
G1 X100.321 Y191.326 F7800.000
G1 E2.01287 F2400.00000
G92 E0
G1 X100.000 Y165.170 F7800.000
G1 E2.00000 F2400.00000
G1 F1800
G1 X95.797 Y162.744 E2.13482
G1 X95.797 Y157.890 E2.26963
G1 X100.000 Y155.464 E2.40445
G1 X104.203 Y157.890 E2.53927
G1 X104.203 Y162.744 E2.67408
G1 X100.065 Y165.133 E2.80682
G1 X100.000 Y164.523 F7800.000
G1 F1800
G1 X96.358 Y162.420 E2.92364
G1 X96.358 Y158.214 E3.04046
G1 X100.000 Y156.111 E3.15728
G1 X103.642 Y158.214 E3.27411
G1 X103.642 Y162.420 E3.39093
G1 X100.065 Y164.485 E3.50567
G1 X100.000 Y163.924 F7800.000
G1 F1800
G1 X96.876 Y162.121 E3.59050
G1 X96.876 Y158.513 E3.67532
G1 X100.000 Y156.709 E3.76015
G1 X103.124 Y158.513 E3.84498
G1 X103.124 Y162.121 E3.92981
G1 X100.065 Y163.887 E4.01287
G1 X99.750 Y164.357 F7800.000
G1 E2.01287 F2400.00000
G92 E0
G1 X85.161 Y24.496 F7800.000
G1 E2.00000 F2400.00000
G1 F1800
G1 X84.586 Y24.553 E2.01603
G1 X84.012 Y24.496 E2.03207
G1 X83.459 Y24.328 E2.04810
G1 X82.950 Y24.056 E2.06414
G1 X82.504 Y23.690 E2.08017
G1 X82.138 Y23.244 E2.09620
G1 X81.866 Y22.735 E2.11224
G1 X81.698 Y22.183 E2.12827
G1 X81.642 Y21.608 E2.14431
G1 X81.698 Y21.034 E2.16034
G1 X81.866 Y20.481 E2.17637
G1 X82.138 Y19.972 E2.19241
G1 X82.504 Y19.526 E2.20844
G1 X82.950 Y19.160 E2.22448
G1 X83.464 Y18.885 E2.24064
G1 X84.028 Y18.719 E2.25699
G1 X84.586 Y18.664 E2.27257
G1 X85.161 Y18.720 E2.28861
G1 X85.713 Y18.888 E2.30464
G1 X86.222 Y19.160 E2.32067
G1 X86.668 Y19.526 E2.33671
G1 X87.034 Y19.972 E2.35274
G1 X87.307 Y20.481 E2.36878
G1 X87.474 Y21.034 E2.38481
G1 X87.531 Y21.608 E2.40084
G1 X87.474 Y22.183 E2.41688
G1 X87.307 Y22.735 E2.43291
G1 X87.034 Y23.244 E2.44894
G1 X86.668 Y23.690 E2.46498
G1 X86.222 Y24.056 E2.48101
G1 X85.713 Y24.328 E2.49705
G1 X85.232 Y24.474 E2.51100
G1 X85.051 Y23.943 F7800.000
G1 F1800
G1 X84.586 Y23.989 E2.52396
G1 X84.122 Y23.943 E2.53693
G1 X83.675 Y23.808 E2.54989
G1 X83.263 Y23.588 E2.56285
G1 X82.903 Y23.292 E2.57582
G1 X82.607 Y22.931 E2.58878
G1 X82.387 Y22.519 E2.60175
G1 X82.251 Y22.073 E2.61471
G1 X82.205 Y21.608 E2.62768
G1 X82.251 Y21.144 E2.64064
G1 X82.387 Y20.697 E2.65360
G1 X82.607 Y20.285 E2.66657
G1 X82.903 Y19.925 E2.67953
G1 X83.263 Y19.629 E2.69250
G1 X83.678 Y19.407 E2.70554
G1 X84.136 Y19.272 E2.71882
G1 X84.586 Y19.227 E2.73138
G1 X85.051 Y19.273 E2.74435
G1 X85.497 Y19.409 E2.75731
G1 X85.909 Y19.629 E2.77028
G1 X86.270 Y19.925 E2.78324
G1 X86.566 Y20.285 E2.79621
G1 X86.786 Y20.697 E2.80917
G1 X86.921 Y21.144 E2.82213
G1 X86.967 Y21.608 E2.83510
G1 X86.921 Y22.073 E2.84806
G1 X86.786 Y22.519 E2.86103
G1 X86.566 Y22.931 E2.87399
G1 X86.270 Y23.292 E2.88696
G1 X85.909 Y23.588 E2.89992
G1 X85.497 Y23.808 E2.91288
G1 X85.122 Y23.921 E2.92377
G1 X84.949 Y23.433 F7800.000
G1 F1800
G1 X84.586 Y23.468 E2.93234
G1 X84.223 Y23.433 E2.94092
G1 X83.874 Y23.327 E2.94949
G1 X83.553 Y23.155 E2.95807
G1 X83.271 Y22.924 E2.96664
G1 X83.039 Y22.642 E2.97522
G1 X82.867 Y22.320 E2.98379
G1 X82.762 Y21.971 E2.99237
G1 X82.726 Y21.608 E3.00094
G1 X82.762 Y21.245 E3.00952
G1 X82.867 Y20.896 E3.01809
G1 X83.039 Y20.575 E3.02667
G1 X83.271 Y20.293 E3.03525
G1 X83.553 Y20.061 E3.04382
G1 X83.875 Y19.889 E3.05242
G1 X84.236 Y19.782 E3.06126
G1 X84.586 Y19.748 E3.06954
G1 X84.949 Y19.784 E3.07812
G1 X85.298 Y19.889 E3.08669
G1 X85.620 Y20.061 E3.09527
G1 X85.902 Y20.293 E3.10384
G1 X86.133 Y20.575 E3.11242
G1 X86.305 Y20.896 E3.12099
G1 X86.411 Y21.245 E3.12957
G1 X86.447 Y21.608 E3.13814
G1 X86.411 Y21.971 E3.14672
G1 X86.305 Y22.320 E3.15529
G1 X86.133 Y22.642 E3.16387
G1 X85.902 Y22.924 E3.17244
G1 X85.620 Y23.155 E3.18102
G1 X85.298 Y23.327 E3.18960
G1 X85.021 Y23.411 E3.19641
G1 X84.949 Y23.433 F7800.000
G1 E1.19641 F2400.00000
G92 E0
G1 X84.586 Y13.553 F7800.000
G1 E2.00000 F2400.00000
G1 F1800
G1 X84.012 Y13.496 E2.01603
G1 X83.459 Y13.328 E2.03207
G1 X82.950 Y13.056 E2.04810
G1 X82.504 Y12.690 E2.06414
G1 X82.138 Y12.244 E2.08017
G1 X81.866 Y11.735 E2.09620
G1 X81.698 Y11.183 E2.11224
G1 X81.642 Y10.608 E2.12827
G1 X81.698 Y10.034 E2.14431
G1 X81.866 Y9.481 E2.16034
G1 X82.138 Y8.972 E2.17637
G1 X82.504 Y8.526 E2.19241
G1 X82.950 Y8.160 E2.20844
G1 X83.464 Y7.886 E2.22461
G1 X84.028 Y7.719 E2.24096
G1 X84.586 Y7.664 E2.25654
G1 X85.161 Y7.720 E2.27257
G1 X85.713 Y7.888 E2.28861
G1 X86.222 Y8.160 E2.30464
G1 X86.668 Y8.526 E2.32067
G1 X87.034 Y8.972 E2.33671
G1 X87.307 Y9.481 E2.35274
G1 X87.474 Y10.034 E2.36877
G1 X87.531 Y10.608 E2.38481
G1 X87.474 Y11.183 E2.40084
G1 X87.307 Y11.735 E2.41688
G1 X87.034 Y12.244 E2.43291
G1 X86.668 Y12.690 E2.44894
G1 X86.222 Y13.056 E2.46498
G1 X85.713 Y13.328 E2.48101
G1 X85.161 Y13.496 E2.49705
G1 X84.661 Y13.545 E2.51100
G1 X84.586 Y12.989 F7800.000
G1 F1800
G1 X84.122 Y12.943 E2.52396
G1 X83.675 Y12.808 E2.53693
G1 X83.264 Y12.588 E2.54989
G1 X82.903 Y12.292 E2.56285
G1 X82.607 Y11.931 E2.57582
G1 X82.387 Y11.519 E2.58878
G1 X82.251 Y11.073 E2.60175
G1 X82.205 Y10.608 E2.61471
G1 X82.251 Y10.144 E2.62768
G1 X82.387 Y9.697 E2.64064
G1 X82.607 Y9.285 E2.65360
G1 X82.903 Y8.925 E2.66657
G1 X83.264 Y8.629 E2.67953
G1 X83.678 Y8.407 E2.69257
G1 X84.136 Y8.272 E2.70586
G1 X84.586 Y8.227 E2.71842
G1 X85.051 Y8.273 E2.73138
G1 X85.497 Y8.409 E2.74435
G1 X85.909 Y8.629 E2.75731
G1 X86.270 Y8.925 E2.77028
G1 X86.566 Y9.285 E2.78324
G1 X86.786 Y9.697 E2.79620
G1 X86.921 Y10.144 E2.80917
G1 X86.967 Y10.608 E2.82213
G1 X86.921 Y11.073 E2.83510
G1 X86.786 Y11.519 E2.84806
G1 X86.566 Y11.931 E2.86103
G1 X86.270 Y12.292 E2.87399
G1 X85.909 Y12.588 E2.88696
G1 X85.497 Y12.808 E2.89992
G1 X85.051 Y12.943 E2.91288
G1 X84.661 Y12.982 E2.92376
G1 X84.586 Y12.468 F7800.000
G1 F1800
G1 X84.223 Y12.433 E2.93234
G1 X83.874 Y12.327 E2.94092
G1 X83.553 Y12.155 E2.94949
G1 X83.271 Y11.924 E2.95807
G1 X83.039 Y11.642 E2.96664
G1 X82.867 Y11.320 E2.97522
G1 X82.762 Y10.971 E2.98379
G1 X82.726 Y10.608 E2.99237
G1 X82.762 Y10.245 E3.00094
G1 X82.867 Y9.896 E3.00952
G1 X83.039 Y9.575 E3.01809
G1 X83.271 Y9.293 E3.02667
G1 X83.553 Y9.061 E3.03524
G1 X83.875 Y8.889 E3.04384
G1 X84.236 Y8.782 E3.05269
G1 X84.586 Y8.748 E3.06096
G1 X84.949 Y8.784 E3.06954
G1 X85.298 Y8.889 E3.07812
G1 X85.620 Y9.061 E3.08669
G1 X85.902 Y9.293 E3.09527
G1 X86.133 Y9.575 E3.10384
G1 X86.305 Y9.896 E3.11242
G1 X86.411 Y10.245 E3.12099
G1 X86.447 Y10.608 E3.12957
G1 X86.411 Y10.971 E3.13814
G1 X86.305 Y11.320 E3.14672
G1 X86.133 Y11.642 E3.15529
G1 X85.902 Y11.924 E3.16387
G1 X85.620 Y12.155 E3.17244
G1 X85.298 Y12.327 E3.18102
G1 X84.949 Y12.433 E3.18959
G1 X84.661 Y12.461 E3.19641
G1 X84.586 Y12.468 F7800.000
G1 E1.19641 F2400.00000
G92 E0
G1 X112.469 Y10.608 F7800.000
G1 E2.00000 F2400.00000
G1 F1800
G1 X112.526 Y10.034 E2.01603
G1 X112.693 Y9.481 E2.03207
G1 X112.966 Y8.972 E2.04810
G1 X113.332 Y8.526 E2.06414
G1 X113.778 Y8.160 E2.08017
G1 X114.291 Y7.885 E2.09634
G1 X114.856 Y7.719 E2.11269
G1 X115.414 Y7.664 E2.12827
G1 X115.988 Y7.720 E2.14430
G1 X116.541 Y7.888 E2.16033
G1 X117.050 Y8.160 E2.17637
G1 X117.496 Y8.526 E2.19240
G1 X117.862 Y8.972 E2.20844
G1 X118.134 Y9.481 E2.22447
G1 X118.302 Y10.034 E2.24050
G1 X118.358 Y10.608 E2.25654
G1 X118.302 Y11.183 E2.27257
G1 X118.134 Y11.735 E2.28861
G1 X117.862 Y12.244 E2.30464
G1 X117.496 Y12.690 E2.32067
G1 X117.050 Y13.056 E2.33671
G1 X116.541 Y13.328 E2.35274
G1 X115.988 Y13.496 E2.36878
G1 X115.414 Y13.553 E2.38481
G1 X114.839 Y13.496 E2.40084
G1 X114.287 Y13.328 E2.41688
G1 X113.778 Y13.056 E2.43291
G1 X113.332 Y12.690 E2.44894
G1 X112.966 Y12.244 E2.46498
G1 X112.693 Y11.735 E2.48101
G1 X112.526 Y11.183 E2.49705
G1 X112.477 Y10.683 E2.51100
G1 X113.033 Y10.608 F7800.000
G1 F1800
G1 X113.079 Y10.144 E2.52396
G1 X113.214 Y9.697 E2.53693
G1 X113.434 Y9.285 E2.54989
G1 X113.730 Y8.925 E2.56285
G1 X114.091 Y8.629 E2.57582
G1 X114.505 Y8.407 E2.58886
G1 X114.964 Y8.272 E2.60214
G1 X115.414 Y8.227 E2.61471
G1 X115.878 Y8.273 E2.62767
G1 X116.325 Y8.409 E2.64063
G1 X116.737 Y8.629 E2.65360
G1 X117.097 Y8.925 E2.66656
G1 X117.393 Y9.285 E2.67953
G1 X117.613 Y9.697 E2.69249
G1 X117.749 Y10.144 E2.70546
G1 X117.795 Y10.608 E2.71842
G1 X117.749 Y11.073 E2.73138
G1 X117.613 Y11.519 E2.74435
G1 X117.393 Y11.931 E2.75731
G1 X117.097 Y12.292 E2.77028
G1 X116.737 Y12.588 E2.78324
G1 X116.325 Y12.808 E2.79621
G1 X115.878 Y12.943 E2.80917
G1 X115.414 Y12.989 E2.82213
G1 X114.949 Y12.943 E2.83510
G1 X114.503 Y12.808 E2.84806
G1 X114.091 Y12.588 E2.86103
G1 X113.730 Y12.292 E2.87399
G1 X113.434 Y11.931 E2.88696
G1 X113.214 Y11.519 E2.89992
G1 X113.079 Y11.073 E2.91288
G1 X113.040 Y10.683 E2.92377
G1 X113.553 Y10.608 F7800.000
G1 F1800
G1 X113.589 Y10.245 E2.93234
G1 X113.695 Y9.896 E2.94092
G1 X113.867 Y9.575 E2.94949
G1 X114.098 Y9.293 E2.95807
G1 X114.380 Y9.061 E2.96664
G1 X114.703 Y8.889 E2.97524
G1 X115.063 Y8.782 E2.98408
G1 X115.414 Y8.748 E2.99236
G1 X115.777 Y8.784 E3.00094
G1 X116.126 Y8.889 E3.00951
G1 X116.447 Y9.061 E3.01809
G1 X116.729 Y9.293 E3.02666
G1 X116.961 Y9.575 E3.03524
G1 X117.133 Y9.896 E3.04382
G1 X117.238 Y10.245 E3.05239
G1 X117.274 Y10.608 E3.06097
G1 X117.238 Y10.971 E3.06954
G1 X117.133 Y11.320 E3.07812
G1 X116.961 Y11.642 E3.08669
G1 X116.729 Y11.924 E3.09527
G1 X116.447 Y12.155 E3.10384
G1 X116.126 Y12.327 E3.11242
G1 X115.777 Y12.433 E3.12099
G1 X115.414 Y12.468 E3.12957
G1 X115.051 Y12.433 E3.13814
G1 X114.702 Y12.327 E3.14672
G1 X114.380 Y12.155 E3.15529
G1 X114.098 Y11.924 E3.16387
G1 X113.867 Y11.642 E3.17244
G1 X113.695 Y11.320 E3.18102
G1 X113.589 Y10.971 E3.18960
G1 X113.561 Y10.683 E3.19641
G1 X113.553 Y10.608 F7800.000
G1 E1.19641 F2400.00000
G92 E0
G1 X114.857 Y18.720 F7800.000
G1 E2.00000 F2400.00000
G1 F1800
G1 X115.414 Y18.663 E2.01555
G1 X115.987 Y18.721 E2.03155
G1 X116.537 Y18.892 E2.04755
G1 X117.041 Y19.169 E2.06351
G1 X117.480 Y19.538 E2.07945
G1 X117.838 Y19.985 E2.09536
G1 X118.102 Y20.492 E2.11125
G1 X118.264 Y21.040 E2.12711
G1 X118.318 Y21.608 E2.14296
G1 X118.264 Y22.176 E2.15882
G1 X118.102 Y22.724 E2.17468
G1 X117.838 Y23.231 E2.19056
G1 X117.480 Y23.678 E2.20647
G1 X117.041 Y24.048 E2.22241
G1 X116.537 Y24.324 E2.23838
G1 X115.987 Y24.495 E2.25437
G1 X115.414 Y24.553 E2.27038
G1 X114.841 Y24.495 E2.28638
G1 X114.291 Y24.324 E2.30237
G1 X113.787 Y24.048 E2.31834
G1 X113.348 Y23.678 E2.33428
G1 X112.990 Y23.231 E2.35019
G1 X112.726 Y22.724 E2.36607
G1 X112.564 Y22.176 E2.38193
G1 X112.509 Y21.608 E2.39779
G1 X112.564 Y21.040 E2.41364
G1 X112.726 Y20.492 E2.42950
G1 X112.990 Y19.985 E2.44539
G1 X113.348 Y19.538 E2.46130
G1 X113.787 Y19.169 E2.47724
G1 X114.295 Y18.890 E2.49334
G1 X114.785 Y18.741 E2.50756
G1 X114.967 Y19.272 F7800.000
G1 F1800
G1 X115.414 Y19.227 E2.52002
G1 X115.874 Y19.274 E2.53288
G1 X116.316 Y19.411 E2.54574
G1 X116.722 Y19.634 E2.55859
G1 X117.076 Y19.932 E2.57145
G1 X117.365 Y20.293 E2.58430
G1 X117.579 Y20.704 E2.59716
G1 X117.711 Y21.147 E2.61002
G1 X117.755 Y21.608 E2.62288
G1 X117.711 Y22.069 E2.63573
G1 X117.579 Y22.513 E2.64859
G1 X117.365 Y22.923 E2.66145
G1 X117.076 Y23.285 E2.67430
G1 X116.722 Y23.583 E2.68716
G1 X116.316 Y23.805 E2.70002
G1 X115.874 Y23.943 E2.71287
G1 X115.414 Y23.989 E2.72573
G1 X114.953 Y23.943 E2.73859
G1 X114.511 Y23.805 E2.75145
G1 X114.106 Y23.583 E2.76430
G1 X113.751 Y23.285 E2.77716
G1 X113.462 Y22.923 E2.79001
G1 X113.248 Y22.513 E2.80287
G1 X113.117 Y22.069 E2.81573
G1 X113.073 Y21.608 E2.82859
G1 X113.117 Y21.147 E2.84144
G1 X113.248 Y20.704 E2.85430
G1 X113.462 Y20.293 E2.86716
G1 X113.751 Y19.932 E2.88001
G1 X114.106 Y19.634 E2.89287
G1 X114.514 Y19.410 E2.90581
G1 X114.896 Y19.294 E2.91689
G1 X115.070 Y19.782 F7800.000
G1 F1800
G1 X115.414 Y19.748 E2.92502
G1 X115.770 Y19.784 E2.93345
G1 X116.113 Y19.890 E2.94188
G1 X116.428 Y20.063 E2.95034
G1 X116.704 Y20.295 E2.95881
G1 X116.929 Y20.577 E2.96730
G1 X117.097 Y20.898 E2.97582
G1 X117.200 Y21.246 E2.98436
G1 X117.235 Y21.608 E2.99290
G1 X117.200 Y21.970 E3.00144
G1 X117.097 Y22.318 E3.00998
G1 X116.929 Y22.639 E3.01849
G1 X116.704 Y22.921 E3.02699
G1 X116.428 Y23.153 E3.03546
G1 X116.113 Y23.326 E3.04391
G1 X115.770 Y23.433 E3.05235
G1 X115.414 Y23.469 E3.06077
G1 X115.057 Y23.433 E3.06920
G1 X114.715 Y23.326 E3.07763
G1 X114.400 Y23.153 E3.08609
G1 X114.124 Y22.921 E3.09456
G1 X113.898 Y22.639 E3.10305
G1 X113.731 Y22.318 E3.11157
G1 X113.628 Y21.970 E3.12011
G1 X113.593 Y21.608 E3.12865
G1 X113.628 Y21.246 E3.13719
G1 X113.731 Y20.898 E3.14573
G1 X113.898 Y20.577 E3.15424
G1 X114.124 Y20.295 E3.16274
G1 X114.400 Y20.063 E3.17121
G1 X114.716 Y19.890 E3.17969
G1 X114.998 Y19.804 E3.18662
G1 X115.180 Y19.455 F7800.000
G1 E1.18662 F2400.00000
G92 E0
G1 X113.000 Y-4.483 F7800.000
G1 E2.00000 F2400.00000
G1 F1800
