; generated by Slic3r 1.3.0 on 2025-08-13 at 21:15:11

; external perimeters extrusion width = 0.55mm (7.28mm^3/s)
; perimeters extrusion width = 0.70mm (11.44mm^3/s)
; infill extrusion width = 0.63mm (13.45mm^3/s)
; solid infill extrusion width = 0.70mm (3.81mm^3/s)
; top infill extrusion width = 0.70mm (2.86mm^3/s)

M107
M104 S200 ; set temperature
G28 ; home all axes
G1 Z5 F5000 ; lift nozzle

; Filament gcode

M109 S200 ; set temperature and wait for it to be reached
G21 ; set units to millimeters
G90 ; use absolute coordinates
M82 ; use absolute distances for extrusion
G92 E0
G1 Z0.350 F7800.000
G1 E-2.00000 F2400.00000
G92 E0
G1 X86.429 Y96.422 F7800.000
G1 E2.00000 F2400.00000
G1 F774.167
G1 X88.180 Y94.958 E2.06340
G1 X91.450 Y94.084 E2.15744
G1 X99.370 Y94.084 E2.37744
G1 X101.618 Y94.481 E2.44083
G1 X103.593 Y95.624 E2.50423
G1 X105.058 Y97.375 E2.56763
G1 X105.901 Y100.015 E2.64461
G1 X105.945 Y100.469 E2.65729
G1 X105.961 Y101.535 E2.68690
G1 X105.784 Y102.707 E2.71982
G1 X105.743 Y102.874 E2.72460
G1 X104.822 Y104.962 E2.78799
G1 X103.242 Y106.608 E2.85139
G1 X101.193 Y107.614 E2.91478
G1 X99.370 Y107.872 E2.96591
G1 X91.450 Y107.872 E3.18591
G1 X89.203 Y107.475 E3.24930
G1 X87.227 Y106.332 E3.31270
G1 X85.763 Y104.582 E3.37610
G1 X84.889 Y101.311 E3.47014
G1 X84.889 Y100.645 E3.48863
G1 X85.286 Y98.398 E3.55203
G1 X86.392 Y96.487 E3.61334
G1 E1.61334 F2400.00000
G92 E0
G1 X99.132 Y101.036 F7800.000
G1 E2.00000 F2400.00000
G1 F1800
G1 X91.725 Y101.036 E2.17416
G1 X91.725 Y100.920 E2.17688
G1 X99.121 Y100.920 E2.35077
G1 X99.125 Y100.961 E2.35174
G1 X98.632 Y101.033 F7800.000
G1 Z0.650 F7800.000
G1 X98.634 Y100.712 F7800.000
G1 F600
G1 X92.286 Y100.712 E2.52298
G1 X92.286 Y100.481 E2.52921
G1 X98.612 Y100.481 E2.69985
G1 X98.627 Y100.637 E2.70409
G1 X99.155 Y101.272 F7800.000
G1 F3000
G1 X91.725 Y101.272 E2.85721
G1 X91.725 Y100.395 E2.87528

G1 F3600
G1 X91.725 Y99.920 E2.88848
G1 X99.121 Y99.920 E3.09391
G1 X99.167 Y100.395 E3.10717

G1 F3000
G1 X99.220 Y100.948 E3.11861
G1 X99.173 Y101.199 E3.12388
G1 X98.739 Y100.994 F7800.000
G1 Z0.950 F7800.000
G1 X98.044 Y100.294 F7800.000
G1 F600
G1 X92.922 Y100.294 E3.26207
G1 X92.922 Y100.193 E3.26479
G1 X98.034 Y100.193 E3.40272
G1 X98.037 Y100.219 E3.40343
G1 X98.733 Y100.812 F7800.000
G1 F600
G1 X98.715 Y100.930 E3.40663
G1 X92.286 Y100.930 E3.58006
G1 X92.286 Y99.557 E3.61708
G1 X98.612 Y99.557 E3.78772
G1 X98.726 Y100.738 E3.81970
G1 X99.155 Y101.490 F7800.000
G1 F3000
G1 X91.725 Y101.490 E3.97282
G1 X91.725 Y99.395 E4.01600

G1 F3600
G1 X91.725 Y98.997 E4.02707
G1 X99.121 Y98.997 E4.23249
G1 X99.159 Y99.395 E4.24361

G1 F3000
G1 X99.295 Y100.804 E4.27277
G1 X99.285 Y100.959 E4.27599
G1 X99.173 Y101.417 E4.28571
G1 X98.740 Y101.212 F7800.000
M106 S255
G1 Z1.250 F7800.000
G1 X98.154 Y100.512 F7800.000
G1 F600
G1 X92.922 Y100.512 E4.42687
G1 X92.922 Y99.270 E4.46038
G1 X98.034 Y99.270 E4.59830
G1 X98.147 Y100.437 E4.62994
G1 X98.715 Y101.148 F7800.000
G1 F600
G1 X92.286 Y101.148 E4.80337
G1 X92.286 Y98.634 E4.87117
G1 X98.612 Y98.634 E5.04182
G1 X98.808 Y100.668 E5.09694
G1 X98.799 Y100.805 E5.10064
G1 X98.733 Y101.075 E5.10813
G1 X99.155 Y101.708 F7800.000
G1 F3000
G1 X91.725 Y101.708 E5.26125
G1 X91.725 Y98.472 E5.32795
M106 S255

G1 F3600
G1 X91.725 Y98.074 E5.33902
G1 X99.121 Y98.074 E5.54444
G1 X99.159 Y98.472 E5.55556
M106 S255

G1 F3000
G1 X99.370 Y100.660 E5.60086
G1 X99.355 Y100.891 E5.60564
G1 X99.173 Y101.635 E5.62143
G1 X98.740 Y101.429 F7800.000
G1 Z1.550 F7800.000
G1 X98.246 Y100.533 F7800.000
G1 F614.366
G1 X98.216 Y100.730 E5.62679
G1 X92.922 Y100.730 E5.76962
G1 X92.922 Y98.346 E5.83392
G1 X98.034 Y98.346 E5.97184
G1 X98.238 Y100.459 E6.02909
G1 X98.715 Y101.365 F7800.000
G1 F614.366
G1 X92.286 Y101.365 E6.20252
G1 X92.286 Y97.711 E6.30111
G1 X98.612 Y97.711 E6.47176
G1 X98.883 Y100.524 E6.54800
G1 X98.869 Y100.737 E6.55374
G1 X98.733 Y101.293 E6.56919
G1 X99.155 Y101.926 F7800.000
G1 F3000
G1 X91.725 Y101.926 E6.72231
G1 X91.725 Y97.549 E6.81253
M106 S255

G1 F3600
G1 X91.725 Y97.150 E6.82360
G1 X99.121 Y97.150 E7.02902
G1 X99.159 Y97.549 E7.04014
M106 S255

G1 F3000
G1 X99.446 Y100.515 E7.10157
G1 X99.425 Y100.822 E7.10791
G1 X99.173 Y101.853 E7.12979
G1 X98.740 Y101.647 F7800.000
G1 E5.12979 F2400.00000
G92 E0
G1 X97.317 Y100.341 F7800.000
G1 E2.00000 F2400.00000
G1 F819.155
G1 X97.812 Y99.847 E2.02149
G1 X97.722 Y98.913 E2.05031
G1 X96.293 Y100.341 E2.11237
G1 X95.270 Y100.341 E2.14383
G1 X96.876 Y98.735 E2.21365
G1 X95.852 Y98.735 E2.24511
G1 X94.246 Y100.341 E2.31492
G1 X93.310 Y100.341 E2.34367
G1 X93.310 Y100.253 E2.34638
G1 X94.829 Y98.735 E2.41236
G1 X93.805 Y98.735 E2.44382
G1 X93.310 Y99.229 E2.46531
G1 Z1.850 F7800.000
G1 E0.46531 F2400.00000
G92 E0
G1 X98.216 Y100.948 F7800.000
G1 E2.00000 F2400.00000
G1 F765.464
G1 X92.922 Y100.948 E2.14283
G1 X92.922 Y97.423 E2.23792
G1 X98.034 Y97.423 E2.37584
G1 X98.321 Y100.389 E2.45623
G1 X98.309 Y100.571 E2.46113
G1 X98.234 Y100.875 E2.46959
G1 X98.715 Y101.583 F7800.000
G1 F765.464
G1 X92.286 Y101.583 E2.64302
G1 X92.286 Y96.788 E2.77239
G1 X98.612 Y96.788 E2.94303
G1 X98.959 Y100.380 E3.04039
G1 X98.939 Y100.668 E3.04819
G1 X98.733 Y101.511 E3.07159
G1 X99.155 Y102.144 F7800.000
G1 F3000
G1 X91.725 Y102.144 E3.22471
G1 X91.725 Y96.625 E3.33845
M106 S255

G1 F3600
G1 X91.725 Y96.227 E3.34952
G1 X99.121 Y96.227 E3.55494
G1 X99.159 Y96.625 E3.56606
M106 S255

G1 F3000
G1 X99.521 Y100.371 E3.64363
G1 X99.496 Y100.754 E3.65153
G1 X99.173 Y102.071 E3.67948
G1 X98.740 Y101.865 F7800.000
G1 E1.67948 F2400.00000
G92 E0
G1 X97.704 Y98.306 F7800.000
G1 E2.00000 F2400.00000
G1 F1020.62
G1 X97.210 Y97.812 E2.02153
G1 X96.184 Y97.812 E2.05309
G1 X97.814 Y99.441 E2.12402
G1 X97.922 Y100.559 E2.15859
G1 X95.159 Y97.812 E2.27853
G1 X94.133 Y97.812 E2.31009
G1 X96.881 Y100.559 E2.42969
G1 X95.856 Y100.559 E2.46125
G1 X93.310 Y98.014 E2.57205
G1 X93.310 Y99.039 E2.60361
G1 X94.830 Y100.559 E2.66977
G1 X93.805 Y100.559 E2.70134
G1 X93.310 Y100.065 E2.72286
M106 S252.45
G1 Z2.150 F7800.000
G1 E0.72286 F2400.00000
G92 E0
G1 X98.216 Y101.166 F7800.000
G1 E2.00000 F2400.00000
G1 F900
G1 X92.922 Y101.166 E2.14283
G1 X92.922 Y96.500 E2.26870
G1 X98.034 Y96.500 E2.40663
G1 X98.396 Y100.245 E2.50814
G1 X98.379 Y100.502 E2.51508
G1 X98.234 Y101.093 E2.53149
G1 X98.715 Y101.801 F7800.000
G1 F900
G1 X92.286 Y101.801 E2.70492
G1 X92.286 Y95.864 E2.86509
G1 X98.612 Y95.864 E3.03573
G1 X99.034 Y100.236 E3.15420
G1 X99.010 Y100.600 E3.16404
G1 X98.733 Y101.729 E3.19540
G1 X99.155 Y102.362 F7800.000
G1 F3000
G1 X91.725 Y102.362 E3.34852
G1 X91.725 Y95.702 E3.48579
M106 S255

G1 F3600
G1 X91.725 Y95.304 E3.49685
G1 X99.121 Y95.304 E3.70228
G1 X99.159 Y95.702 E3.71339
M106 S252.45

G1 F3000
G1 X99.596 Y100.227 E3.80709
G1 X99.566 Y100.686 E3.81656
G1 X99.173 Y102.289 E3.85059
G1 X98.740 Y102.083 F7800.000
G1 E1.85059 F2400.00000
G92 E0
G1 X97.470 Y100.777 F7800.000
G1 E2.00000 F2400.00000
G1 F1200
G1 X97.965 Y100.283 E2.01982
G1 X98.006 Y100.008 E2.02771
G1 X97.943 Y99.360 E2.04614
G1 X96.526 Y100.777 E2.10294
G1 X95.582 Y100.777 E2.12970
G1 X97.860 Y98.499 E2.22102
G1 X97.777 Y97.638 E2.24554
G1 X94.637 Y100.777 E2.37137
G1 X93.693 Y100.777 E2.39813
G1 X97.582 Y96.888 E2.55401
G1 X96.638 Y96.888 E2.58078
G1 X93.310 Y100.216 E2.71415
G1 X93.310 Y99.272 E2.74091
G1 X95.693 Y96.888 E2.83644
G1 X94.749 Y96.888 E2.86320
G1 X93.310 Y98.327 E2.92087
G1 X93.310 Y97.383 E2.94764
G1 X93.805 Y96.888 E2.96746
M106 S247.35
G1 Z2.450 F7800.000
G1 E0.96746 F2400.00000
G92 E0
G1 X98.216 Y101.384 F7800.000
G1 E2.00000 F2400.00000
G1 F900
G1 X92.922 Y101.384 E2.14283
G1 X92.922 Y96.456 E2.27577
G1 X98.157 Y96.456 E2.41700
G1 X98.384 Y98.265 E2.46618
G1 X98.296 Y98.285 E2.46862
G1 X98.471 Y100.101 E2.51785
G1 X98.449 Y100.434 E2.52684
G1 X98.234 Y101.311 E2.55120
G1 X98.715 Y102.019 F7800.000
G1 F900
G1 X92.286 Y102.019 E2.72463
G1 X92.286 Y95.820 E2.89186
G1 X98.708 Y95.820 E3.06510
G1 X98.870 Y96.950 E3.09590
G1 X99.027 Y98.291 E3.13231
G1 X99.065 Y98.763 E3.14507
G1 X98.983 Y98.781 E3.14735
G1 X99.109 Y100.092 E3.18286
G1 X99.080 Y100.531 E3.19475
G1 X98.733 Y101.947 E3.23406
G1 X99.155 Y102.580 F7800.000
G1 F900
G1 X91.725 Y102.580 E3.38718
G1 X91.725 Y95.260 E3.53805
G1 X99.173 Y95.260 E3.69156
G1 X99.245 Y95.618 E3.69909
G1 X99.426 Y96.878 E3.72532
G1 X99.585 Y98.236 E3.75351
G1 X99.663 Y99.202 E3.77349
G1 X99.588 Y99.219 E3.77506
G1 X99.671 Y100.083 E3.79295
G1 X99.636 Y100.617 E3.80398
G1 X99.173 Y102.507 E3.84409
G1 X98.740 Y102.301 F7800.000
G1 E1.84409 F2400.00000
G92 E0
G1 X97.853 Y97.339 F7800.000
G1 E2.00000 F2400.00000
G1 F1200
G1 X97.359 Y96.844 E2.02022
G1 X96.396 Y96.844 E2.04806
G1 X97.886 Y98.334 E2.10896
G1 X97.989 Y99.400 E2.13991
G1 X95.433 Y96.844 E2.24439
G1 X94.469 Y96.844 E2.27223
G1 X98.075 Y100.450 E2.41961
G1 X98.066 Y100.583 E2.42349
G1 X97.965 Y100.995 E2.43574
G1 X97.657 Y100.995 E2.44464
G1 X93.506 Y96.844 E2.61432
G1 X93.310 Y96.844 E2.61999
G1 X93.310 Y97.611 E2.64216
G1 X96.694 Y100.995 E2.78048
G1 X95.731 Y100.995 E2.80832
G1 X93.310 Y98.575 E2.90728
G1 X93.310 Y99.538 E2.93512
G1 X94.768 Y100.995 E2.99470
G1 X93.805 Y100.995 E3.02254
G1 X93.310 Y100.501 E3.04276
M106 S255
G1 Z2.750 F7800.000
G1 E1.04276 F2400.00000
G92 E0
G1 X98.216 Y101.602 F7800.000
G1 E2.00000 F2400.00000
G1 F855.278
G1 X92.922 Y101.602 E2.14283
G1 X92.922 Y96.456 E2.28165
G1 X98.222 Y96.456 E2.42462
G1 X98.690 Y99.671 E2.51228
G1 X98.234 Y101.529 E2.56387
G1 X99.287 Y99.903 F7800.000
G1 F3421.11
G1 X98.715 Y102.237 E2.62869
G1 X92.286 Y102.237 E2.80212
G1 X92.286 Y95.820 E2.97523
G1 X98.750 Y95.820 E3.14961
G1 X98.845 Y96.328 E3.16353
G1 X99.240 Y99.038 E3.23741
G1 X100.176 Y99.038 E3.26267
M106 S255

G1 F3600
G1 X107.714 Y99.038 E3.47205
G1 X107.714 Y99.903 E3.49610
G1 X100.182 Y99.903 E3.70533
M106 S255

G1 F3421.11
G1 X99.362 Y99.903 E3.72744
G1 X99.727 Y100.464 F7800.000
G1 F3000
G1 X99.155 Y102.798 E3.77696
G1 X91.725 Y102.798 E3.93008
G1 X91.725 Y95.260 E4.08545
G1 X99.173 Y95.260 E4.23895
G1 X99.266 Y95.527 E4.24478
G1 X99.398 Y96.236 E4.25964
G1 X99.725 Y98.477 E4.30632
G1 X100.131 Y98.477 E4.31470
M106 S255

G1 F3600
G1 X108.275 Y98.477 E4.54090
G1 X108.275 Y100.464 E4.59610
G1 X100.172 Y100.464 E4.82116
M106 S255

G1 F3000
G1 X99.802 Y100.464 E4.82879
G1 X99.307 Y100.735 F7800.000
G1 X97.965 Y100.719 F7800.000
G1 F1140.37
G1 X97.470 Y101.213 E4.84987
G1 X96.466 Y101.213 F7800.000
G1 F1140.37
G1 X98.290 Y99.390 E4.92759
G1 X98.162 Y98.513 E4.95430
G1 X95.462 Y101.213 E5.06939
G1 X94.457 Y101.213 E5.09967
G1 X98.034 Y97.636 E5.25213
G1 X97.919 Y96.844 E5.27626
G1 X97.822 Y96.844 E5.27918
G1 X93.453 Y101.213 E5.46541
G1 X93.310 Y101.213 E5.46972
G1 X93.310 Y100.352 E5.49568
G1 X96.818 Y96.844 E5.64519
G1 X95.813 Y96.844 E5.67546
G1 X93.310 Y99.348 E5.78216
G1 X93.310 Y98.343 E5.81244
G1 X94.809 Y96.844 E5.87633
G1 X93.805 Y96.844 E5.90660
G1 X93.310 Y97.339 E5.92767
M106 S249.9
G1 Z3.050 F7800.000
G1 E3.92767 F2400.00000
G92 E0
G1 X98.216 Y101.820 F7800.000
G1 E2.00000 F2400.00000
G1 F900
G1 X92.922 Y101.820 E2.14283
G1 X92.922 Y96.456 E2.28753
G1 X98.265 Y96.456 E2.43167
G1 X98.715 Y99.175 E2.50601
G1 X98.865 Y99.175 E2.51006
G1 X98.234 Y101.747 E2.58150
G1 E0.58150 F2400.00000
G92 E0
G1 X100.127 Y99.175 F7800.000
G1 E2.00000 F2400.00000
G1 F900
G1 X107.078 Y99.175 E2.18753
G1 X107.078 Y99.766 E2.20350
G1 X100.610 Y99.766 E2.37800
G1 X100.174 Y99.233 E2.39658
G1 X99.470 Y99.376 F7800.000
G1 F3600
G1 X98.715 Y102.455 E2.48212
G1 X92.286 Y102.455 E2.65555
G1 X92.286 Y95.820 E2.83454
G1 X98.780 Y95.820 E3.00973
G1 X98.876 Y96.253 E3.02168
G1 X99.254 Y98.539 E3.08419
G1 X107.714 Y98.539 E3.31241
G1 X107.714 Y100.402 E3.36267
G1 X100.308 Y100.402 E3.56245
G1 X99.518 Y99.434 E3.59618
G1 X99.747 Y100.601 F7800.000
G1 F3000
G1 X99.155 Y103.016 E3.64742
G1 X91.725 Y103.016 E3.80054
G1 X91.725 Y95.260 E3.96040
G1 X99.173 Y95.260 E4.11390
G1 X99.300 Y95.577 E4.12094
G1 X99.426 Y96.147 E4.13297
G1 X99.729 Y97.978 E4.17123
G1 X108.275 Y97.978 E4.34735
G1 X108.275 Y100.963 E4.40886
G1 X100.042 Y100.963 E4.57854
G1 X99.794 Y100.659 E4.58661
G1 X99.254 Y100.514 F7800.000
G1 E2.58661 F2400.00000
G92 E0
G1 X97.973 Y97.339 F7800.000
G1 E2.00000 F2400.00000
G1 F1200
G1 X97.478 Y96.844 E2.01927
G1 X96.561 Y96.844 E2.04455
G1 X98.155 Y98.439 E2.10666
G1 X98.337 Y99.539 E2.13736
G1 X95.643 Y96.844 E2.24232
G1 X94.725 Y96.844 E2.26760
G1 X98.230 Y100.350 E2.40415
G1 X98.049 Y101.087 E2.42505
G1 X93.807 Y96.844 E2.59032
G1 X93.310 Y96.844 E2.60401
G1 X93.310 Y97.265 E2.61560
G1 X97.476 Y101.431 E2.77789
G1 X96.558 Y101.431 E2.80317
G1 X93.310 Y98.183 E2.92970
G1 X93.310 Y99.101 E2.95498
G1 X95.640 Y101.431 E3.04576
G1 X94.723 Y101.431 E3.07104
G1 X93.310 Y100.019 E3.12606
G1 X93.310 Y100.937 E3.15134
G1 X93.805 Y101.431 E3.17060
M106 S247.35
G1 Z3.350 F7800.000
G1 E1.17060 F2400.00000
G92 E0
G1 X98.742 Y98.820 F7800.000
G1 E2.00000 F2400.00000
G1 F900
G1 X99.005 Y98.820 E2.00711
G1 X98.216 Y102.038 E2.09649
G1 X92.922 Y102.038 E2.23932
G1 X92.922 Y96.456 E2.38989
G1 X98.298 Y96.456 E2.53492
G1 X98.728 Y98.746 E2.59778
G1 X99.379 Y98.820 F7800.000
G1 F900
G1 X107.078 Y98.820 E2.80549
G1 X107.078 Y100.121 E2.84060
G1 X100.441 Y100.121 E3.01964
G1 X99.426 Y98.878 E3.06295
G1 X99.269 Y98.184 F7800.000
G1 F3600
G1 X107.714 Y98.184 E3.29075
G1 X107.714 Y100.757 E3.36016
G1 X100.140 Y100.757 E3.56449
G1 X99.405 Y99.858 E3.59581
G1 X98.715 Y102.673 E3.67402
G1 X92.286 Y102.673 E3.84745
G1 X92.286 Y95.820 E4.03231
G1 X98.772 Y95.820 E4.20728
G1 X98.817 Y95.892 E4.20955
G1 X98.886 Y96.146 E4.21665
G1 X99.255 Y98.110 E4.27058
G1 X99.734 Y97.623 F7800.000
G1 F3000
G1 X108.275 Y97.623 E4.44660
G1 X108.275 Y101.318 E4.52274
G1 X99.873 Y101.318 E4.69588
G1 X99.682 Y101.083 E4.70212
G1 X99.155 Y103.234 E4.74776
G1 X91.725 Y103.234 E4.90088
G1 X91.725 Y95.260 E5.06523
G1 X99.173 Y95.260 E5.21874
G1 X99.282 Y95.579 E5.22568
G1 X99.333 Y95.653 E5.22754
G1 X99.433 Y96.020 E5.23537
G1 X99.721 Y97.550 E5.26746
G1 X99.768 Y98.122 F7800.000
G1 E3.26746 F2400.00000
G92 E0
G1 X100.965 Y99.208 F7800.000
G1 E2.00000 F2400.00000
G1 F1200
G1 X100.471 Y99.703 E2.02013
G1 X100.496 Y99.733 E2.02126
G1 X101.400 Y99.733 E2.04728
G1 X101.924 Y99.208 E2.06864
G1 X102.884 Y99.208 E2.09625
G1 X102.359 Y99.733 E2.11761
G1 X103.318 Y99.733 E2.14522
G1 X103.843 Y99.208 E2.16659
G1 X104.802 Y99.208 E2.19419
G1 X104.277 Y99.733 E2.21556
G1 X105.236 Y99.733 E2.24317
G1 X105.761 Y99.208 E2.26453
G1 X106.690 Y99.208 E2.29127
G1 X106.690 Y99.238 E2.29214
G1 X106.195 Y99.733 E2.31227
G1 E0.31227 F2400.00000
G92 E0
G1 X97.470 Y101.649 F7800.000
G1 E2.00000 F2400.00000
G1 F1200
G1 X97.965 Y101.155 E2.01976
G1 X98.271 Y99.908 E2.05602
G1 X96.529 Y101.649 E2.12559
G1 X95.588 Y101.649 E2.15217
G1 X98.393 Y98.844 E2.26423
G1 X98.245 Y98.052 E2.28700
G1 X94.647 Y101.649 E2.43071
G1 X93.706 Y101.649 E2.45730
G1 X98.096 Y97.259 E2.63266
G1 X98.018 Y96.844 E2.64458
G1 X97.569 Y96.844 E2.65724
G1 X93.310 Y101.104 E2.82738
G1 X93.310 Y100.162 E2.85397
G1 X96.628 Y96.844 E2.98651
G1 X95.687 Y96.844 E3.01309
G1 X93.310 Y99.221 E3.10804
G1 X93.310 Y98.280 E3.13463
G1 X94.746 Y96.844 E3.19198
G1 X93.805 Y96.844 E3.21856
G1 X93.310 Y97.339 E3.23831
M106 S252.45
G1 Z3.650 F7800.000
G1 E1.23831 F2400.00000
G92 E0
G1 X98.770 Y98.574 F7800.000
G1 E2.00000 F2400.00000
G1 F3600
G1 X107.078 Y98.574 E2.22412
G1 X107.078 Y100.368 E2.27252
G1 X100.184 Y100.368 E2.45850
