; generated by Slic3r 1.3.0 on 2025-08-13 at 21:17:53

; external perimeters extrusion width = 0.55mm (7.28mm^3/s)
; perimeters extrusion width = 0.70mm (11.44mm^3/s)
; infill extrusion width = 0.63mm (13.45mm^3/s)
; solid infill extrusion width = 0.70mm (3.81mm^3/s)
; top infill extrusion width = 0.70mm (2.86mm^3/s)

M107
M104 S200 ; set temperature
G28 ; home all axes
G1 Z5 F5000 ; lift nozzle

; Filament gcode

M109 S200 ; set temperature and wait for it to be reached
G21 ; set units to millimeters
G90 ; use absolute coordinates
M82 ; use absolute distances for extrusion
G92 E0
G1 Z0.350 F7800.000
G1 E-2.00000 F2400.00000
G92 E0
G1 X42.476 Y85.024 F7800.000
G1 E2.00000 F2400.00000
G1 F1800
G1 X43.422 Y84.632 E2.02844
G1 X45.933 Y84.132 E2.09955
G1 X154.067 Y84.132 E5.10327
G1 X156.578 Y84.632 E5.17438
G1 X157.524 Y85.023 E5.20282
G1 X159.652 Y86.446 E5.27393
G1 X160.376 Y87.170 E5.30237
G1 X161.798 Y89.297 E5.37346
G1 X162.190 Y90.244 E5.40192
G1 X162.690 Y92.755 E5.47303
G1 X162.690 Y93.779 E5.50147
G1 X162.407 Y95.682 E5.55493
G1 X162.258 Y96.175 E5.56924
G1 X161.435 Y97.916 E5.62273
G1 X160.866 Y98.767 E5.65117
G1 X159.287 Y100.415 E5.71456
G1 X157.970 Y101.163 E5.75662
G1 X124.498 Y115.348 E6.76646
G1 X121.938 Y115.868 E6.83902
G1 X78.062 Y115.868 E8.05779
G1 X75.502 Y115.348 E8.13035
G1 X42.030 Y101.163 E9.14019
G1 X40.115 Y99.921 E9.20358
G1 X39.134 Y98.767 E9.24564
G1 X38.565 Y97.916 E9.27408
G1 X37.742 Y96.176 E9.32755
G1 X37.593 Y95.683 E9.34185
G1 X37.310 Y93.779 E9.39534
G1 X37.310 Y92.755 E9.42377
G1 X37.810 Y90.244 E9.49488
G1 X38.202 Y89.298 E9.52332
G1 X39.624 Y87.170 E9.59443
G1 X40.348 Y86.446 E9.62287
G1 X42.414 Y85.065 E9.69190
G1 E7.69190 F2400.00000
G92 E0
G1 X47.000 Y95.054 F7800.000
G1 E2.00000 F2400.00000
G1 F1800
G1 X46.655 Y95.159 E2.00846
G1 X46.297 Y95.194 E2.01693
G1 X45.939 Y95.159 E2.02539
G1 X45.594 Y95.054 E2.03386
G1 X45.277 Y94.884 E2.04232
G1 X44.998 Y94.656 E2.05079
G1 X44.770 Y94.378 E2.05925
G1 X44.600 Y94.060 E2.06772
G1 X44.496 Y93.716 E2.07618
G1 X44.460 Y93.357 E2.08465
G1 X44.496 Y92.999 E2.09311
G1 X44.608 Y92.629 E2.10222
G1 X44.771 Y92.335 E2.11011
G1 X44.998 Y92.059 E2.11852
G1 X45.277 Y91.831 E2.12698
G1 X45.594 Y91.661 E2.13545
G1 X45.939 Y91.556 E2.14391
G1 X46.284 Y91.522 E2.15207
G1 X46.654 Y91.556 E2.16081
G1 X47.000 Y91.661 E2.16930
G1 X47.317 Y91.831 E2.17777
G1 X47.595 Y92.059 E2.18623
G1 X47.824 Y92.337 E2.19470
G1 X47.993 Y92.655 E2.20316
G1 X48.098 Y92.999 E2.21162
G1 X48.133 Y93.352 E2.21995
G1 X48.116 Y93.657 E2.22715
G1 X47.993 Y94.060 E2.23705
G1 X47.824 Y94.378 E2.24551
G1 X47.595 Y94.656 E2.25398
G1 X47.317 Y94.884 E2.26244
G1 X47.066 Y95.019 E2.26915
G1 X47.000 Y95.054 F7800.000
G1 E0.26915 F2400.00000
G92 E0
G1 X82.275 Y105.206 F7800.000
G1 E2.00000 F2400.00000
G1 F1800
G1 X82.409 Y104.764 E2.01283
G1 X82.627 Y104.356 E2.02567
G1 X82.920 Y103.999 E2.03850
G1 X83.277 Y103.706 E2.05133
G1 X83.684 Y103.488 E2.06417
G1 X84.126 Y103.354 E2.07700
G1 X84.572 Y103.310 E2.08943
G1 X85.043 Y103.353 E2.10258
G1 X85.488 Y103.488 E2.11550
G1 X85.896 Y103.706 E2.12833
G1 X86.253 Y103.999 E2.14116
G1 X86.546 Y104.356 E2.15400
G1 X86.764 Y104.764 E2.16683
G1 X86.898 Y105.206 E2.17966
G1 X86.943 Y105.666 E2.19250
G1 X86.898 Y106.126 E2.20533
G1 X86.764 Y106.568 E2.21817
G1 X86.546 Y106.975 E2.23100
G1 X86.253 Y107.332 E2.24383
G1 X85.896 Y107.625 E2.25667
G1 X85.488 Y107.843 E2.26950
G1 X85.046 Y107.977 E2.28233
G1 X84.586 Y108.023 E2.29517
G1 X84.126 Y107.977 E2.30800
G1 X83.684 Y107.843 E2.32083
G1 X83.277 Y107.625 E2.33367
G1 X82.920 Y107.332 E2.34650
G1 X82.627 Y106.975 E2.35934
G1 X82.409 Y106.568 E2.37217
G1 X82.275 Y106.126 E2.38500
G1 X82.229 Y105.666 E2.39784
G1 X82.267 Y105.281 E2.40859
G1 X82.785 Y105.308 F7800.000
G1 F1800
G1 X82.890 Y104.963 E2.41705
G1 X83.059 Y104.646 E2.42552
G1 X83.288 Y104.367 E2.43398
G1 X83.566 Y104.139 E2.44244
G1 X83.883 Y103.969 E2.45091
G1 X84.228 Y103.865 E2.45937
G1 X84.574 Y103.831 E2.46754
G1 X84.944 Y103.864 E2.47628
G1 X85.289 Y103.969 E2.48476
G1 X85.606 Y104.139 E2.49323
G1 X85.885 Y104.367 E2.50169
G1 X86.113 Y104.646 E2.51016
G1 X86.283 Y104.963 E2.51862
G1 X86.387 Y105.308 E2.52709
G1 X86.423 Y105.666 E2.53555
G1 X86.387 Y106.024 E2.54402
G1 X86.283 Y106.369 E2.55248
G1 X86.113 Y106.686 E2.56095
G1 X85.885 Y106.964 E2.56941
G1 X85.606 Y107.193 E2.57787
G1 X85.289 Y107.362 E2.58634
G1 X84.944 Y107.467 E2.59480
G1 X84.586 Y107.502 E2.60327
G1 X84.228 Y107.467 E2.61173
G1 X83.883 Y107.362 E2.62020
G1 X83.566 Y107.193 E2.62866
G1 X83.288 Y106.964 E2.63713
G1 X83.059 Y106.686 E2.64559
G1 X82.890 Y106.369 E2.65406
G1 X82.785 Y106.024 E2.66252
G1 X82.750 Y105.666 E2.67099
G1 X82.778 Y105.382 E2.67769
G1 X82.785 Y105.308 F7800.000
G1 E0.67769 F2400.00000
G92 E0
G1 X84.126 Y96.977 F7800.000
G1 E2.00000 F2400.00000
G1 F1800
G1 X83.684 Y96.843 E2.01283
G1 X83.277 Y96.625 E2.02567
G1 X82.920 Y96.332 E2.03850
G1 X82.627 Y95.975 E2.05133
G1 X82.409 Y95.568 E2.06417
G1 X82.275 Y95.126 E2.07700
G1 X82.229 Y94.666 E2.08984
G1 X82.275 Y94.206 E2.10267
G1 X82.409 Y93.764 E2.11550
G1 X82.627 Y93.356 E2.12834
G1 X82.920 Y92.999 E2.14117
G1 X83.277 Y92.706 E2.15400
G1 X83.684 Y92.488 E2.16684
G1 X84.126 Y92.354 E2.17967
G1 X84.572 Y92.310 E2.19210
G1 X85.043 Y92.353 E2.20525
G1 X85.488 Y92.488 E2.21817
G1 X85.896 Y92.706 E2.23100
G1 X86.253 Y92.999 E2.24383
G1 X86.546 Y93.356 E2.25667
G1 X86.764 Y93.764 E2.26950
G1 X86.898 Y94.206 E2.28233
G1 X86.943 Y94.666 E2.29517
G1 X86.898 Y95.126 E2.30800
G1 X86.764 Y95.568 E2.32083
G1 X86.546 Y95.975 E2.33367
G1 X86.253 Y96.332 E2.34650
G1 X85.896 Y96.625 E2.35933
G1 X85.488 Y96.843 E2.37217
G1 X85.046 Y96.977 E2.38500
G1 X84.586 Y97.023 E2.39784
G1 X84.201 Y96.985 E2.40859
G1 X84.228 Y96.467 F7800.000
G1 F1800
G1 X83.883 Y96.362 E2.41705
G1 X83.566 Y96.193 E2.42552
G1 X83.288 Y95.964 E2.43398
G1 X83.059 Y95.686 E2.44245
G1 X82.890 Y95.369 E2.45091
G1 X82.785 Y95.024 E2.45937
G1 X82.750 Y94.666 E2.46784
G1 X82.785 Y94.308 E2.47630
G1 X82.890 Y93.963 E2.48477
G1 X83.059 Y93.646 E2.49323
G1 X83.288 Y93.367 E2.50170
G1 X83.566 Y93.139 E2.51016
G1 X83.883 Y92.969 E2.51863
G1 X84.228 Y92.865 E2.52709
G1 X84.574 Y92.831 E2.53526
G1 X84.944 Y92.864 E2.54399
G1 X85.289 Y92.969 E2.55248
G1 X85.606 Y93.139 E2.56095
G1 X85.885 Y93.367 E2.56941
G1 X86.113 Y93.646 E2.57787
G1 X86.283 Y93.963 E2.58634
G1 X86.387 Y94.308 E2.59480
G1 X86.423 Y94.666 E2.60327
G1 X86.387 Y95.024 E2.61173
G1 X86.283 Y95.369 E2.62020
G1 X86.113 Y95.686 E2.62866
G1 X85.885 Y95.964 E2.63713
G1 X85.606 Y96.193 E2.64559
G1 X85.289 Y96.362 E2.65406
G1 X84.944 Y96.467 E2.66252
G1 X84.586 Y96.502 E2.67099
G1 X84.303 Y96.474 E2.67769
G1 X84.228 Y96.467 F7800.000
G1 E0.67769 F2400.00000
G92 E0
G1 X83.313 Y92.051 F7800.000
G1 E2.00000 F2400.00000
G1 F1800
G1 X82.964 Y92.237 E2.01101
G1 X82.521 Y92.601 E2.02692
G1 X82.158 Y93.043 E2.04282
G1 X81.888 Y93.548 E2.05872
G1 X81.722 Y94.096 E2.07463
G1 X81.666 Y94.666 E2.09053
G1 X81.722 Y95.236 E2.10643
G1 X81.888 Y95.783 E2.12234
G1 X82.158 Y96.288 E2.13824
G1 X82.521 Y96.731 E2.15414
G1 X82.964 Y97.094 E2.17004
G1 X83.469 Y97.364 E2.18595
G1 X84.016 Y97.530 E2.20185
G1 X84.586 Y97.586 E2.21776
G1 X85.156 Y97.530 E2.23366
G1 X85.704 Y97.364 E2.24956
G1 X86.209 Y97.094 E2.26547
G1 X86.651 Y96.731 E2.28137
G1 X87.015 Y96.288 E2.29727
G1 X87.284 Y95.783 E2.31317
G1 X87.451 Y95.236 E2.32908
G1 X87.507 Y94.666 E2.34498
G1 X87.451 Y94.096 E2.36088
G1 X87.284 Y93.548 E2.37679
G1 X87.015 Y93.043 E2.39269
G1 X86.651 Y92.601 E2.40859
G1 X86.209 Y92.237 E2.42450
G1 X85.860 Y92.051 E2.43550
G1 X114.136 Y92.053 E3.22095
G1 X113.791 Y92.237 E3.23179
G1 X113.349 Y92.601 E3.24770
G1 X112.986 Y93.043 E3.26360
G1 X112.716 Y93.548 E3.27950
G1 X112.549 Y94.096 E3.29541
G1 X112.493 Y94.666 E3.31131
G1 X112.549 Y95.236 E3.32721
G1 X112.716 Y95.783 E3.34312
G1 X112.986 Y96.288 E3.35902
G1 X113.349 Y96.731 E3.37492
G1 X113.791 Y97.094 E3.39083
G1 X114.296 Y97.364 E3.40673
G1 X114.844 Y97.530 E3.42263
G1 X115.414 Y97.586 E3.43854
G1 X115.984 Y97.530 E3.45444
G1 X116.531 Y97.364 E3.47034
G1 X117.036 Y97.094 E3.48625
G1 X117.479 Y96.731 E3.50215
G1 X117.842 Y96.288 E3.51805
G1 X118.112 Y95.783 E3.53396
G1 X118.278 Y95.236 E3.54986
G1 X118.334 Y94.666 E3.56576
G1 X118.278 Y94.096 E3.58167
G1 X118.112 Y93.548 E3.59757
G1 X117.842 Y93.043 E3.61347
G1 X117.479 Y92.601 E3.62938
G1 X117.036 Y92.237 E3.64528
G1 X116.692 Y92.054 E3.65611
G1 X119.873 Y92.054 E3.74446
G1 X119.042 Y92.884 E3.77709
G1 X118.550 Y94.074 E3.81287
G1 X118.550 Y105.234 E4.12285
G1 X119.042 Y106.424 E4.15863
G1 X119.905 Y107.286 E4.19250
G1 X120.673 Y107.697 E4.21671
G1 X122.061 Y107.784 E4.25534
G1 X121.663 Y107.953 E4.26735
G1 X117.209 Y107.953 E4.39108
G1 X117.479 Y107.731 E4.40079
G1 X117.842 Y107.288 E4.41670
G1 X118.112 Y106.783 E4.43260
G1 X118.278 Y106.236 E4.44850
G1 X118.334 Y105.666 E4.46441
G1 X118.278 Y105.096 E4.48031
G1 X118.112 Y104.548 E4.49621
G1 X117.842 Y104.043 E4.51212
G1 X117.479 Y103.601 E4.52802
G1 X117.036 Y103.237 E4.54392
G1 X116.531 Y102.968 E4.55983
G1 X115.980 Y102.800 E4.57583
G1 X115.402 Y102.746 E4.59195
G1 X114.844 Y102.801 E4.60753
G1 X114.296 Y102.968 E4.62343
G1 X113.791 Y103.237 E4.63934
G1 X113.349 Y103.601 E4.65524
G1 X112.986 Y104.043 E4.67114
G1 X112.716 Y104.548 E4.68705
G1 X112.549 Y105.096 E4.70295
G1 X112.493 Y105.666 E4.71885
G1 X112.549 Y106.236 E4.73476
G1 X112.716 Y106.783 E4.75066
G1 X112.986 Y107.288 E4.76656
G1 X113.349 Y107.731 E4.78247
G1 X113.619 Y107.953 E4.79218
G1 X86.381 Y107.953 E5.54880
G1 X86.651 Y107.731 E5.55852
G1 X87.015 Y107.288 E5.57442
G1 X87.284 Y106.783 E5.59032
G1 X87.451 Y106.236 E5.60623
G1 X87.507 Y105.666 E5.62213
G1 X87.451 Y105.096 E5.63803
G1 X87.284 Y104.548 E5.65394
G1 X87.015 Y104.043 E5.66984
G1 X86.651 Y103.601 E5.68574
G1 X86.209 Y103.237 E5.70165
G1 X85.704 Y102.968 E5.71755
G1 X85.151 Y102.800 E5.73359
G1 X84.570 Y102.747 E5.74981
G1 X84.016 Y102.801 E5.76525
G1 X83.469 Y102.968 E5.78116
G1 X82.964 Y103.237 E5.79706
G1 X82.521 Y103.601 E5.81296
G1 X82.158 Y104.043 E5.82887
G1 X81.888 Y104.548 E5.84477
G1 X81.722 Y105.096 E5.86067
G1 X81.666 Y105.666 E5.87658
G1 X81.722 Y106.236 E5.89248
G1 X81.888 Y106.783 E5.90838
G1 X82.158 Y107.288 E5.92429
G1 X82.521 Y107.731 E5.94019
G1 X82.791 Y107.953 E5.94991
G1 X78.337 Y107.953 E6.07364
G1 X77.939 Y107.784 E6.08565
G1 X79.327 Y107.697 E6.12427
G1 X80.095 Y107.286 E6.14848
G1 X80.958 Y106.424 E6.18236
G1 X81.450 Y105.234 E6.21813
G1 X81.450 Y94.074 E6.52812
G1 X80.958 Y92.884 E6.56389
G1 X80.123 Y92.050 E6.59666
G1 X83.238 Y92.051 E6.68319
G1 E4.68319 F2400.00000
G92 E0
G1 X80.489 Y93.220 F7800.000
G1 E2.00000 F2400.00000
G1 F1800
G1 X80.889 Y94.186 E2.02904
G1 X80.889 Y105.122 E2.33282
G1 X80.482 Y106.106 E2.36240
G1 X79.758 Y106.830 E2.39086
G1 X79.170 Y107.145 E2.40937
G1 X77.329 Y107.260 E2.46061
G1 X52.441 Y96.714 E3.21144
G1 X51.828 Y95.796 E3.24210
G1 X51.651 Y95.211 E3.25909
G1 X51.651 Y94.186 E3.28755
G1 X52.058 Y93.202 E3.31713
G1 X52.811 Y92.449 E3.34671
G1 X53.795 Y92.042 E3.37628
G1 X78.745 Y92.042 E4.06936
G1 X79.729 Y92.449 E4.09894
G1 X80.443 Y93.163 E4.12697
G1 X80.043 Y93.496 F7800.000
G1 F1800
G1 X80.372 Y94.289 E4.14716
G1 X80.372 Y105.019 E4.39947
G1 X80.043 Y105.813 E4.41966
G1 X79.446 Y106.410 E4.43953
G1 X79.025 Y106.635 E4.45074
G1 X77.418 Y106.736 E4.48859
G1 X52.786 Y96.297 E5.11766
G1 X52.301 Y95.572 E5.13817
G1 X52.169 Y95.134 E5.14894
G1 X52.169 Y94.289 E5.16881
G1 X52.497 Y93.496 E5.18900
G1 X53.104 Y92.888 E5.20919
G1 X53.898 Y92.560 E5.22938
G1 X78.642 Y92.560 E5.81123
G1 X79.436 Y92.888 E5.83142
G1 X79.990 Y93.443 E5.84985
G1 X80.043 Y93.496 F7800.000
G1 E3.84985 F2400.00000
G92 E0
G1 X52.419 Y92.048 F7800.000
G1 E2.00000 F2400.00000
G1 F1800
G1 X51.582 Y92.884 E2.03287
G1 X51.090 Y94.074 E2.06864
G1 X51.090 Y95.294 E2.10252
G1 X51.315 Y96.038 E2.12413
G1 X51.748 Y96.685 E2.14573
G1 X48.467 Y95.295 E2.24471
G1 X48.725 Y94.980 E2.25602
G1 X48.995 Y94.475 E2.27192
G1 X49.186 Y93.847 E2.29016
G1 X49.214 Y93.329 E2.30458
G1 X49.161 Y92.788 E2.31967
G1 X48.995 Y92.240 E2.33558
G1 X48.892 Y92.047 E2.34163
G1 X52.344 Y92.048 E2.43752
G1 E0.43752 F2400.00000
G92 E0
G1 X113.057 Y94.666 F7800.000
G1 E2.00000 F2400.00000
G1 F1800
G1 X113.102 Y94.206 E2.01283
G1 X113.236 Y93.764 E2.02567
G1 X113.454 Y93.356 E2.03850
G1 X113.747 Y92.999 E2.05133
G1 X114.104 Y92.706 E2.06417
G1 X114.512 Y92.488 E2.07700
G1 X114.954 Y92.354 E2.08984
G1 X115.404 Y92.310 E2.10238
G1 X115.872 Y92.354 E2.11544
G1 X116.316 Y92.488 E2.12833
G1 X116.723 Y92.706 E2.14117
G1 X117.080 Y92.999 E2.15400
G1 X117.373 Y93.356 E2.16683
G1 X117.591 Y93.764 E2.17967
G1 X117.725 Y94.206 E2.19250
G1 X117.771 Y94.666 E2.20533
G1 X117.725 Y95.126 E2.21817
G1 X117.591 Y95.568 E2.23100
G1 X117.373 Y95.975 E2.24383
G1 X117.080 Y96.332 E2.25667
G1 X116.723 Y96.625 E2.26950
G1 X116.316 Y96.843 E2.28234
G1 X115.874 Y96.977 E2.29517
G1 X115.414 Y97.023 E2.30800
G1 X114.954 Y96.977 E2.32084
G1 X114.512 Y96.843 E2.33367
G1 X114.104 Y96.625 E2.34650
G1 X113.747 Y96.332 E2.35934
G1 X113.454 Y95.975 E2.37217
G1 X113.236 Y95.568 E2.38500
G1 X113.102 Y95.126 E2.39784
G1 X113.064 Y94.740 E2.40859
G1 X113.577 Y94.666 F7800.000
G1 F1800
G1 X113.613 Y94.308 E2.41705
G1 X113.717 Y93.963 E2.42552
G1 X113.887 Y93.646 E2.43398
G1 X114.115 Y93.367 E2.44245
G1 X114.394 Y93.139 E2.45091
G1 X114.711 Y92.969 E2.45938
G1 X115.056 Y92.865 E2.46784
G1 X115.405 Y92.830 E2.47610
G1 X115.771 Y92.865 E2.48475
G1 X116.117 Y92.969 E2.49323
G1 X116.434 Y93.139 E2.50170
G1 X116.712 Y93.367 E2.51016
G1 X116.941 Y93.646 E2.51863
G1 X117.110 Y93.963 E2.52709
G1 X117.215 Y94.308 E2.53556
G1 X117.250 Y94.666 E2.54402
G1 X117.215 Y95.024 E2.55248
G1 X117.110 Y95.369 E2.56095
G1 X116.941 Y95.686 E2.56941
G1 X116.712 Y95.964 E2.57788
G1 X116.434 Y96.193 E2.58634
G1 X116.117 Y96.362 E2.59481
G1 X115.772 Y96.467 E2.60327
G1 X115.414 Y96.502 E2.61174
G1 X115.056 Y96.467 E2.62020
G1 X114.711 Y96.362 E2.62867
G1 X114.394 Y96.193 E2.63713
G1 X114.115 Y95.964 E2.64560
G1 X113.887 Y95.686 E2.65406
G1 X113.717 Y95.369 E2.66253
G1 X113.613 Y95.024 E2.67099
G1 X113.585 Y94.740 E2.67769
G1 X113.577 Y94.666 F7800.000
G1 E0.67769 F2400.00000
G92 E0
G1 X119.111 Y94.666 F7800.000
G1 E2.00000 F2400.00000
G1 F1800
G1 X119.111 Y94.186 E2.01333
G1 X119.518 Y93.202 E2.04290
G1 X120.271 Y92.449 E2.07248
G1 X121.255 Y92.042 E2.10206
G1 X146.205 Y92.042 E2.79514
G1 X147.189 Y92.449 E2.82471
G1 X147.942 Y93.202 E2.85429
G1 X148.349 Y94.186 E2.88386
G1 X148.349 Y95.211 E2.91232
G1 X148.172 Y95.796 E2.92932
G1 X147.559 Y96.714 E2.95998
G1 X122.687 Y107.261 E3.71041
G1 X120.830 Y107.145 E3.76209
G1 X120.242 Y106.830 E3.78060
G1 X119.518 Y106.106 E3.80907
G1 X119.111 Y105.122 E3.83864
G1 X119.111 Y94.741 E4.12702
G1 X119.628 Y94.666 F7800.000
G1 F1800
G1 X119.628 Y94.289 E4.13588
G1 X119.957 Y93.496 E4.15607
G1 X120.564 Y92.888 E4.17626
G1 X121.358 Y92.560 E4.19645
G1 X146.102 Y92.560 E4.77830
G1 X146.896 Y92.888 E4.79849
G1 X147.503 Y93.496 E4.81868
G1 X147.831 Y94.289 E4.83887
G1 X147.831 Y95.134 E4.85874
G1 X147.699 Y95.572 E4.86951
G1 X147.214 Y96.297 E4.89002
G1 X122.598 Y106.737 E5.51875
G1 X120.975 Y106.635 E5.55698
G1 X120.554 Y106.410 E5.56819
G1 X119.957 Y105.813 E5.58806
G1 X119.628 Y105.019 E5.60825
G1 X119.628 Y94.741 E5.84994
G1 X119.300 Y94.481 F7800.000
G1 E3.84994 F2400.00000
G92 E0
G1 X116.316 Y103.488 F7800.000
G1 E2.00000 F2400.00000
G1 F1800
G1 X116.723 Y103.706 E2.01283
G1 X117.080 Y103.999 E2.02567
