;FLAVOR:Marlin
;TIME:1206
;Filament used: 1.13102m
;Layer height: 0.4
;MINX:127.141
;MINY:132.401
;MINZ:0.36
;MAXX:167.595
;MAXY:172.855
;MAXZ:21.81
;TARGET_MACHINE.NAME:Creality CR-10 Smart
;Generated with Cura_SteamEngine 5.10.2
M140 S60
M105
M190 S60
M104 S200
M105
M109 S200
M201 X500.00 Y500.00 Z100.00 E5000.00 ;Setup machine max acceleration
M203 X500.00 Y500.00 Z10.00 E50.00 ;Setup machine max feedrate
M204 P500.00 R1000.00 T500.00 ;Setup Print/Retract/Travel acceleration
M205 X8.00 Y8.00 Z0.40 E5.00 ;Setup Jerk
M220 S100 ;Reset Feedrate
M221 S100 ;Reset Flowrate

G28 ;Home

G92 E0 ;Reset Extruder
G1 Z2.0 F3000 ;Move Z Axis up
G1 X10.1 Y20 Z0.28 F5000.0 ;Move to start position
G1 X10.1 Y200.0 Z0.28 F1500.0 E15 ;Draw the first line
G1 X10.4 Y200.0 Z0.28 F5000.0 ;Move to side a little
G1 X10.4 Y20 Z0.28 F1500.0 E30 ;Draw the second line
G92 E0 ;Reset Extruder
G1 Z2.0 F3000 ;Move Z Axis up

M82 ;absolute extrusion mode
G92 E0
G92 E0
G1 F3000 E-4
;LAYER_COUNT:50
;LAYER:-5
M107
G0 F9600 X137.713 Y137.402 Z0.36
;TYPE:SUPPORT-INTERFACE
G1 F2400 E0
G1 F675 X138.197 Y136.953 E0.07905
G1 X138.567 Y136.626 E0.13817
G1 X139.3 Y136.03 E0.25129
G1 X140.026 Y135.504 E0.35864
G1 X140.357 Y135.281 E0.40643
G1 X141.197 Y134.763 E0.52459
G1 X142.083 Y134.285 E0.64513
G1 X142.426 Y134.119 E0.69076
G1 X143.289 Y133.731 E0.80405
G1 X144.266 Y133.366 E0.92893
G1 X144.565 Y133.266 E0.96669
G1 X145.751 Y132.914 E1.11482
G1 X145.761 Y132.922 E1.11635
G1 X146.402 Y132.776 E1.19507
G1 X146.616 Y132.765 E1.22072
G1 X146.752 Y132.71 E1.23829
G1 X147.81 Y132.534 E1.36671
G1 X148.972 Y132.432 E1.50638
G1 X150.035 Y132.401 E1.63371
G1 X150.923 Y132.428 E1.74009
G1 X151.309 Y132.455 E1.78642
G1 X152.363 Y132.561 E1.91326
G1 X153.197 Y132.697 E2.01444
G1 X153.361 Y132.773 E2.03608
G1 X153.65 Y132.788 E2.07073
G1 X154.457 Y132.975 E2.16992
G1 X155.47 Y133.278 E2.29652
G1 X155.872 Y133.413 E2.3473
G1 X156.797 Y133.766 E2.46584
G1 X157.631 Y134.146 E2.57558
G1 X158.05 Y134.355 E2.63165
G1 X159 Y134.877 E2.76144
G1 X159.664 Y135.299 E2.85564
G1 X159.99 Y135.52 E2.9028
G1 X160.846 Y136.14 E3.02935
G1 X161.435 Y136.632 E3.12124
G1 X161.83 Y136.98 E3.18428
G1 X162.468 Y137.583 E3.28939
G1 X163.091 Y138.249 E3.39859
G1 X163.393 Y138.594 E3.45349
G1 X164.088 Y139.453 E3.58579
G1 X164.739 Y140.393 E3.7227
G1 X165.292 Y141.291 E3.84897
G1 X165.683 Y142.027 E3.94876
G1 X165.979 Y142.632 E4.02941
G1 X165.973 Y142.641 E4.0307
G1 X166.266 Y143.286 E4.11553
G1 X166.618 Y144.222 E4.23527
G1 X166.733 Y144.567 E4.27881
G1 X167.064 Y145.715 E4.42187
G1 X167.278 Y146.683 E4.54057
G1 X167.47 Y147.922 E4.69069
G1 X167.545 Y148.688 E4.78285
G1 X167.568 Y149.078 E4.82963
G1 X167.595 Y150.023 E4.94283
G1 X167.564 Y150.952 E5.05412
G1 X167.537 Y151.381 E5.10559
G1 X167.411 Y152.536 E5.24471
G1 X167.294 Y153.215 E5.32721
G1 X167.197 Y153.705 E5.38702
G1 X166.942 Y154.753 E5.51616
G1 X166.719 Y155.471 E5.60618
G1 X166.576 Y155.886 E5.65874
G1 X166.179 Y156.912 E5.79047
G1 X165.846 Y157.644 E5.88676
G1 X165.712 Y157.916 E5.92306
G1 X165.209 Y158.846 E6.04966
G1 X164.704 Y159.658 E6.16416
G1 X164.488 Y159.977 E6.21029
G1 X163.836 Y160.866 E6.34229
G1 X163.344 Y161.463 E6.43492
G1 X163.061 Y161.78 E6.4858
G1 X162.284 Y162.593 E6.62046
G1 X161.498 Y163.313 E6.74809
G1 X160.698 Y163.967 E6.87181
G1 X160.281 Y164.274 E6.93381
G1 X159.76 Y164.694 E7.01394
G1 X159.273 Y165.201 E7.09812
G1 X159.037 Y165.5 E7.14373
G1 X158.599 Y166.102 E7.23287
G1 X158.128 Y166.671 E7.32131
G1 X157.801 Y167.041 E7.38044
G1 X157.024 Y167.853 E7.515
G1 X156.238 Y168.573 E7.64263
G1 X155.447 Y169.219 E7.76492
G1 X154.675 Y169.779 E7.87911
G1 X154.296 Y170.031 E7.93361
G1 X153.528 Y170.505 E8.04167
G1 X152.641 Y170.979 E8.16209
G1 X152.311 Y171.141 E8.20611
G1 X151.407 Y171.541 E8.32447
G1 X150.518 Y171.878 E8.43831
G1 X150.109 Y172.013 E8.48988
G1 X149.061 Y172.316 E8.6205
G1 X147.917 Y172.562 E8.76061
G1 X146.784 Y172.738 E8.8979
G1 X145.765 Y172.824 E9.02035
G1 X144.7 Y172.855 E9.14792
G1 X143.768 Y172.828 E9.25956
G1 X143.434 Y172.805 E9.29965
G1 X142.385 Y172.699 E9.42589
G1 X141.563 Y172.566 E9.52559
G1 X141.189 Y172.492 E9.57124
G1 X140.337 Y172.29 E9.67609
G1 X140.326 Y172.299 E9.67779
G1 X139.259 Y171.979 E9.81117
G1 X138.885 Y171.85 E9.85854
G1 X138.593 Y171.712 E9.89721
G1 X138.567 Y171.732 E9.90114
G1 X137.947 Y171.498 E9.98049
G1 X137.062 Y171.091 E10.09712
G1 X136.758 Y170.937 E10.13793
G1 X135.842 Y170.442 E10.2626
G1 X134.789 Y169.771 E10.4121
G1 X133.867 Y169.1 E10.54864
G1 X133.233 Y168.568 E10.64774
G1 X132.907 Y168.28 E10.69982
G1 X132.26 Y167.665 E10.8067
G1 X131.597 Y166.959 E10.92267
G1 X131.308 Y166.627 E10.97537
G1 X130.656 Y165.811 E11.10044
G1 X130.231 Y165.214 E11.18818
G1 X129.954 Y164.793 E11.24852
G1 X129.393 Y163.874 E11.37745
G1 X129.037 Y163.198 E11.46893
G1 X128.858 Y162.833 E11.5176
G1 X128.468 Y161.973 E11.63067
G1 X128.33 Y161.633 E11.6746
G1 X128.337 Y161.623 E11.67607
G1 X128.118 Y161.035 E11.7512
G1 X127.998 Y160.672 E11.79697
G1 X127.72 Y159.735 E11.914
G1 X127.449 Y158.532 E12.06165
G1 X127.27 Y157.417 E12.19687
G1 X127.172 Y156.368 E12.32302
G1 X127.141 Y155.205 E12.46232
G1 X127.164 Y154.404 E12.55827
G1 X127.195 Y153.938 E12.61419
G1 X127.305 Y152.847 E12.74549
G1 X127.449 Y151.98 E12.85072
G1 X127.755 Y150.659 E13.01308
G1 X128.041 Y149.709 E13.13187
G1 X128.16 Y149.37 E13.17489
G1 X128.51 Y148.451 E13.29264
G1 X128.87 Y147.661 E13.39659
G1 X129.052 Y147.297 E13.44532
G1 X129.526 Y146.414 E13.56532
G1 X130.04 Y145.595 E13.68109
G1 X130.256 Y145.274 E13.72742
G1 X130.908 Y144.378 E13.8601
G1 X131.4 Y143.785 E13.95236
G1 X131.651 Y143.503 E13.99756
G1 X132.425 Y142.69 E14.13197
G1 X133.231 Y141.951 E14.2629
G1 X134.033 Y141.294 E14.38704
G1 X134.464 Y140.982 E14.45075
G1 X134.961 Y140.579 E14.52736
G1 X135.439 Y140.092 E14.60907
G1 X135.701 Y139.757 E14.65999
G1 X136.156 Y139.135 E14.75227
G1 X136.661 Y138.528 E14.84681
G1 X136.939 Y138.211 E14.8973
G1 X137.713 Y137.402 E15.03136
G0 F9600 X137.843 Y137.843
G1 F675 X162.153 Y162.153 E19.14784
G0 F9600 X163.233 Y160.97
G1 F675 X139.029 Y136.766 E23.24638
G0 F9600 X140.317 Y135.791
G1 F675 X164.206 Y159.681 E27.29166
G0 F9600 X165.063 Y158.275
G1 F675 X141.723 Y134.934 E31.24397
G0 F9600 X143.244 Y134.193
G1 F675 X165.809 Y156.759 E35.06506
G0 F9600 X166.415 Y155.102
G1 F675 X144.899 Y133.585 E38.70851
G0 F9600 X146.718 Y133.142
G1 F675 X166.872 Y153.295 E42.12116
G0 F9600 X167.142 Y151.302
G1 F675 X148.697 Y132.858 E45.24442
G0 F9600 X150.932 Y132.83
G1 F675 X167.166 Y149.064 E47.99337
G0 F9600 X166.819 Y146.454
G1 F675 X153.548 Y133.184 E50.24051
G0 F9600 X156.862 Y134.234
G1 F675 X165.755 Y143.128 E51.74647
G0 F9600 X160.967 Y163.23
G1 F675 X136.765 Y139.028 E55.84467
G0 F9600 X135.778 Y140.303
G1 F675 X159.702 Y164.228 E59.89587
G0 F9600 X158.614 Y165.402
G1 F675 X134.594 Y141.382 E63.96325
G0 F9600 X133.342 Y142.393
G1 F675 X157.606 Y166.657 E68.07194
G0 F9600 X156.488 Y167.801
G1 F675 X132.196 Y143.51 E72.1853
G0 F9600 X131.149 Y144.726
G1 F675 X155.27 Y168.846 E76.26969
G0 F9600 X153.941 Y169.78
G1 F675 X130.22 Y146.059 E80.28644
G0 F9600 X129.397 Y147.499
G1 F675 X152.499 Y170.601 E84.19837
G0 F9600 X150.929 Y171.294
G1 F675 X128.705 Y149.07 E87.96163
G0 F9600 X128.14 Y150.768
G1 F675 X149.224 Y171.852 E91.53184
G0 F9600 X147.355 Y172.245
G1 F675 X127.745 Y152.635 E94.85246
G0 F9600 X127.556 Y154.709
G1 F675 X145.285 Y172.438 E97.85456
G0 F9600 X142.937 Y172.352
G1 F675 X127.637 Y157.053 E100.44527
G0 F9600 X128.171 Y159.849
G1 F675 X140.15 Y171.828 E102.47371
G0 F9600 X136.285 Y170.226
G1 F675 X129.749 Y163.69 E103.58047
G0 F300 X129.749 Y163.69 Z0.96
G0 F9600 X133.629 Y142.143
;TIME_ELAPSED:85.168112
;LAYER:-4
;TYPE:SUPPORT
G1 F675 X131.621 Y144.151 E104.14718
G1 X131.219 Y144.635 E104.27273
G1 X130.584 Y145.503 E104.48736
G1 X130.332 Y145.878 E104.57752
G1 X129.871 Y146.62 E104.75185
G1 X129.418 Y147.458 E104.94195
G1 X129.29 Y147.808 E105.01632
G1 X129.349 Y147.837 E105.02944
G1 X142.71 Y134.476 E108.8002
G1 X143.062 Y134.398 E108.87215
G1 X143.062 Y134.275 E108.8967
G1 X143.608 Y134.034 E109.0158
G1 X144.592 Y133.671 E109.2251
G1 X144.953 Y133.647 E109.2973
G1 X128.462 Y150.139 E113.95156
G1 X128.462 Y150.393 E114.00225
G1 X128.238 Y150.393 E114.04695
G1 X127.928 Y151.661 E114.30745
G1 X127.824 Y152.191 E114.41523
G1 X146.836 Y133.179 E119.78083
G1 X147.161 Y133.179 E119.84568
G1 X147.162 Y133.103 E119.86085
G1 X147.558 Y133.099 E119.93988
G1 X147.558 Y132.986 E119.96243
G1 X147.955 Y132.925 E120.04259
G1 X148.56 Y132.868 E120.16386
G1 X127.609 Y153.819 E126.07668
G1 X127.574 Y154.256 E126.16417
G1 X127.54 Y155.303 E126.37322
G1 X150.036 Y132.807 E132.72208
G1 X150.144 Y132.806 E132.74363
G1 X150.144 Y132.916 E132.76558
G1 X150.968 Y132.834 E132.93083
G1 X151.393 Y132.864 E133.01586
G1 X127.609 Y156.648 E139.72822
G1 X127.681 Y157.443 E139.88752
G1 X127.757 Y157.914 E139.98272
G1 X152.656 Y133.015 E147.00976
G1 X152.692 Y133.022 E147.01708
G1 X152.65 Y133.188 E147.05125
G1 X153.284 Y133.188 E147.17777
G1 X153.694 Y133.391 E147.26907
G1 X128.124 Y158.961 E154.48548
G1 X128.36 Y159.435 E154.59115
G1 X128.046 Y159.435 E154.65381
G1 X128.28 Y160.219 E154.81708
G1 X154.959 Y133.541 E162.34633
G1 X155.245 Y133.626 E162.40587
G1 X155.569 Y133.821 E162.48134
G1 X155.664 Y133.766 E162.50325
G1 X156.015 Y133.898 E162.57808
G1 X128.688 Y161.226 E170.29049
G1 X128.85 Y161.592 E170.37037
G1 X128.74 Y161.592 E170.39232
G1 X129.049 Y162.279 E170.54264
G1 X157.019 Y134.309 E178.43638
G1 X157.439 Y134.505 E178.52888
G1 X157.439 Y134.557 E178.53925
G1 X157.98 Y134.762 E178.65471
G1 X129.509 Y163.233 E186.68984
G1 X129.778 Y163.733 E186.80314
G1 X130.119 Y164.037 E186.89431
G1 X158.881 Y135.275 E195.01157
G1 X159.392 Y135.598 E195.13221
G1 X159.739 Y135.832 E195.21573
G1 X130.571 Y165 E203.44757
G1 X131.16 Y165.824 E203.6497
G1 X160.552 Y136.433 E211.94461
G1 X160.861 Y136.794 E212.03944
G1 X160.75 Y136.906 E212.07091
G1 X161.246 Y137.153 E212.18148
G1 X131.808 Y166.592 E220.48967
G1 X132.488 Y167.325 E220.6892
G1 X162.06 Y137.753 E229.03505
G1 X162.323 Y138.005 E229.10774
G1 X162.754 Y138.473 E229.23471
G1 X133.212 Y168.016 E237.57224
G1 X133.526 Y168.294 E237.65593
G1 X133.973 Y168.668 E237.77224
G1 X163.402 Y139.24 E246.0776
G1 X163.752 Y139.673 E246.18871
G1 X164.013 Y140.042 E246.2789
G1 X134.843 Y169.213 E254.51145
G1 X135.089 Y169.49 E254.58538
G1 X135.631 Y169.839 E254.71402
G1 X164.511 Y140.96 E262.86444
G1 X164.59 Y141.197 E262.9143
G1 X164.966 Y141.53 E263.01453
G1 X165.102 Y141.783 E263.07185
G1 X136.525 Y170.359 E271.13676
G1 X136.863 Y170.544 E271.21365
G1 X137.461 Y170.838 E271.34663
G1 X165.493 Y142.805 E279.25801
G1 X165.661 Y143.366 E279.37487
G1 X165.798 Y143.229 E279.41354
G1 X166.009 Y143.704 E279.51726
G1 X138.453 Y171.26 E287.29416
G1 X138.987 Y171.464 E287.40824
G1 X139.493 Y171.634 E287.51476
G1 X166.372 Y144.755 E295.10059
G1 X166.628 Y145.613 E295.27928
G1 X166.684 Y145.857 E295.32924
G1 X140.597 Y171.944 E302.69155
G1 X141.159 Y172.077 E302.8068
G1 X141.761 Y172.195 E302.92922
G1 X166.93 Y147.025 E310.0326
G1 X167.074 Y147.96 E310.22139
G1 X167.103 Y148.267 E310.28293
G1 X143.01 Y172.36 E317.08249
G1 X143.389 Y172.4 E317.15855
G1 X143.763 Y172.427 E317.23338
G1 X144.337 Y172.447 E317.34799
G1 X167.185 Y149.599 E323.79619
G1 X167.202 Y150.137 E323.90361
G1 X167.062 Y150.137 E323.93155
G1 X167.173 Y151.025 E324.11014
G1 X145.877 Y172.321 E330.12033
G1 X146.219 Y172.389 E330.18991
G1 X146.785 Y172.336 E330.30336
G1 X147.189 Y172.274 E330.38493
G1 X147.188 Y172.157 E330.40828
G1 X147.455 Y172.157 E330.46156
G1 X166.992 Y152.621 E335.97518
G1 X166.887 Y153.231 E336.0987
G1 X166.808 Y153.61 E336.17596
G1 X166.62 Y154.407 E336.33938
G1 X149.145 Y171.881 E341.27106
G1 X150.097 Y171.599 E341.4692
G1 X150.373 Y171.506 E341.52732
G1 X151.271 Y171.17 E341.71866
G1 X165.898 Y156.543 E345.84672
G1 X165.82 Y156.745 E345.88993
G1 X165.348 Y157.754 E346.11223
G1 X164.827 Y158.71 E346.3295
G1 X164.114 Y159.424 E346.53087
G1 X164.325 Y159.53 E346.57799
G1 X154.681 Y169.174 E349.29973
G1 X154.746 Y169.239 E349.31808
G1 X155.197 Y168.913 E349.42913
G1 X155.923 Y168.32 E349.6162
G1 X156.272 Y168.013 E349.70896
G1 X156.75 Y167.567 E349.83942
G1 X157.514 Y166.767 E350.06018
G1 X157.818 Y166.421 E350.15209
G1 X158.279 Y165.865 E350.29622
G1 X158.712 Y165.275 E350.44227
G1 X158.965 Y164.949 E350.52462
G1 X159.494 Y164.395 E350.67749
G1 X160.025 Y163.966 E350.81371
G1 X160.452 Y163.656 E350.91901
G1 X161.183 Y163.06 E351.10724
G1 X161.531 Y162.752 E351.19998
G1 X162.01 Y162.307 E351.33045
G1 X162.775 Y161.506 E351.55149
G1 X163.035 Y161.211 E351.62996
G1 X163.53 Y160.615 E351.78457
G1 X164.165 Y159.745 E351.99952
G1 X164.27 Y159.585 E352.03771
G1 F3000 E348.03771
G0 F9600 X138.889 Y136.882
G1 F2400 E352.03771
G1 F675 X136.874 Y138.898 E352.60652
G0 F300 X136.874 Y138.898 Z1.36
G0 F9600 X160.507 Y136.182
;TIME_ELAPSED:197.762082
;LAYER:-3
;TYPE:SUPPORT-INTERFACE
G1 F900 X160.674 Y136.266 E352.61896
G1 X161.069 Y136.73 E352.65949
G1 X161.147 Y136.651 E352.66688
G1 X161.223 Y136.715 E352.67349
G1 X161.131 Y136.807 E352.68214
G1 X160.507 Y136.182 E352.74089
G1 X159.989 Y135.924 E352.77939
G1 X160.082 Y135.832 E352.78809
G1 X159.503 Y135.432 E352.8349
G1 X158.889 Y135.044 E352.88322
G1 X158.697 Y134.939 E352.89777
G1 X164.724 Y140.965 E353.46471
G1 X164.763 Y141.083 E353.47298
G1 X165.124 Y141.404 E353.50511
G1 X165.481 Y142.069 E353.55532
G1 X165.575 Y142.382 E353.57706
G1 X157.51 Y134.317 E354.33576
G1 X156.717 Y133.951 E354.39386
G1 X156.495 Y133.868 E354.40963
G1 X166.145 Y143.517 E355.31739
G1 X166.468 Y144.407 E355.38038
G1 X155.623 Y133.561 E356.40065
G1 X155.572 Y133.589 E356.40452
G1 X155.329 Y133.443 E356.42338
G1 X154.773 Y133.277 E356.46198
G1 X166.72 Y145.224 E357.58588
G1 X166.826 Y145.58 E357.61059
G1 X166.92 Y145.99 E357.63857
G1 X154.011 Y133.08 E358.85302
G1 X153.933 Y133.062 E358.85834
G1 X153.933 Y133.288 E358.87338
G1 X153.374 Y133.009 E358.91493
G1 X167.08 Y146.715 E360.20431
G1 X167.19 Y147.391 E360.24987
G1 X152.602 Y132.803 E361.62222
G1 X152.347 Y132.761 E361.63941
G1 X151.955 Y132.722 E361.66562
G1 X167.284 Y148.051 E363.10767
G1 X167.343 Y148.676 E363.14943
G1 X151.327 Y132.659 E364.65617
G1 X150.962 Y132.633 E364.68051
G1 X150.756 Y132.654 E364.69428
G1 X167.375 Y149.273 E366.2577
G1 X167.393 Y149.857 E366.29656
G1 X150.141 Y132.605 E367.91953
G1 X149.586 Y132.616 E367.95645
G1 X167.285 Y150.315 E369.62147
G1 X167.367 Y150.962 E369.66485
G1 X149.166 Y132.761 E371.37709
G1 X149.166 Y132.797 E371.37948
G1 X148.512 Y132.672 E371.42377
G1 X167.326 Y151.487 E373.19373
G1 X167.272 Y151.998 E373.22791
G1 X147.995 Y132.721 E375.04137
G1 X147.502 Y132.794 E375.07452
G1 X167.214 Y152.507 E376.92895
G1 X167.132 Y152.99 E376.96154
G1 X147.046 Y132.904 E378.85111
G1 X146.961 Y132.905 E378.85676
G1 X146.961 Y132.979 E378.86169
G1 X146.664 Y132.979 E378.88144
G1 X146.592 Y133.015 E378.8868
G1 X167.043 Y153.466 E380.8107
G1 X166.938 Y153.927 E380.84215
G1 X146.214 Y133.203 E382.79174
G1 X146.026 Y133.297 E382.80572
G1 X146.026 Y133.068 E382.82095
G1 X145.614 Y133.169 E382.84917
G1 X166.83 Y154.385 E384.84504
G1 X166.708 Y154.829 E384.87567
G1 X145.297 Y133.423 E386.88965
G1 X144.772 Y133.459 E386.92466
G1 X166.577 Y155.263 E388.97589
G1 X166.436 Y155.688 E389.00568
G1 X144.311 Y133.563 E391.08706
G1 X143.898 Y133.715 E391.11634
G1 X166.282 Y156.099 E393.22209
G1 X166.125 Y156.508 E393.25123
G1 X143.488 Y133.871 E395.38078
G1 X143.094 Y134.043 E395.40938
G1 X165.964 Y156.913 E397.56085
G1 X165.786 Y157.301 E397.58924
G1 X142.749 Y134.263 E399.75647
G1 X142.459 Y134.326 E399.77621
G1 X142.316 Y134.396 E399.7868
G1 X165.605 Y157.686 E401.97774
G1 X165.411 Y158.057 E402.00558
G1 X141.943 Y134.589 E404.21331
G1 X141.576 Y134.787 E404.24105
G1 X165.211 Y158.423 E406.46453
G1 X165.012 Y158.789 E406.49224
G1 X141.212 Y134.99 E408.73116
G1 X140.863 Y135.207 E408.75849
G1 X164.739 Y159.082 E411.00455
G1 X164.456 Y159.365 E411.03118
G1 X140.509 Y135.418 E413.28396
G1 X140.25 Y135.725 E413.31068
